<?xml version="1.0" encoding="UTF-8"?>
<map version="1.10" tiledversion="1.12.2" orientation="orthogonal" renderorder="right-down" width="56" height="40" tilewidth="16" tileheight="16" infinite="0" nextlayerid="10" nextobjectid="32">
 <tileset firstgid="1" source="indoortileset.tsx"/>
 <tileset firstgid="12289" source="pokemon.tsx"/>
 <tileset firstgid="13605" source="PortalTileset.tsx"/>
 <layer id="1" name="Floor" width="56" height="40">
  <properties>
   <property name="walkable" type="bool" value="true"/>
  </properties>
  <data encoding="csv">
0,0,0,0,0,0,0,0,0,0,0,0,0,0,0,0,0,0,0,0,0,0,0,0,0,0,0,0,0,0,0,0,0,0,0,0,0,0,0,0,0,0,0,0,0,0,0,0,0,0,0,0,0,0,0,0,
0,0,0,0,0,0,0,0,0,0,0,0,0,0,0,0,0,0,0,0,0,0,0,0,0,0,0,0,0,0,0,0,0,0,0,0,0,0,0,0,0,0,0,0,0,0,0,0,0,0,0,0,0,0,0,0,
0,0,0,0,0,0,0,0,0,0,0,0,0,0,0,0,0,0,0,0,0,0,0,0,0,0,0,0,0,0,0,0,0,0,0,0,0,0,0,0,0,0,0,0,0,0,0,0,0,0,0,0,0,0,0,0,
0,0,0,0,0,0,0,0,0,0,0,0,0,0,0,0,0,0,0,0,0,0,0,0,0,0,0,0,0,0,0,0,0,0,0,0,0,0,0,0,0,0,0,0,0,0,0,0,0,0,0,0,0,0,0,0,
0,0,0,0,0,0,0,0,0,0,0,0,0,0,0,0,0,0,8415,8415,0,0,0,0,0,0,0,0,0,0,0,0,0,0,0,0,0,0,0,0,0,0,0,0,0,0,0,0,0,0,0,0,0,0,0,0,
0,0,0,0,0,0,0,0,0,0,0,0,0,0,0,0,0,0,0,0,0,0,0,0,0,0,0,0,0,0,0,0,0,0,0,0,0,0,0,0,0,0,0,0,0,0,0,0,0,0,0,0,0,0,0,0,
0,0,0,0,0,0,0,0,0,0,0,0,0,0,0,0,0,0,0,0,0,0,0,0,0,0,0,0,0,0,0,0,0,0,0,0,0,0,0,0,0,0,0,0,0,0,0,0,0,0,0,0,0,0,0,0,
0,0,0,0,0,0,0,0,0,0,0,0,0,0,0,0,0,0,0,0,0,0,0,0,0,0,0,0,0,0,0,0,0,0,0,0,0,0,0,0,0,0,0,0,0,0,0,0,0,0,0,0,0,0,0,0,
0,0,0,0,0,0,0,0,0,0,0,0,0,0,0,0,0,0,0,0,0,0,0,0,0,0,0,0,0,0,0,0,0,0,0,0,0,0,0,0,0,0,0,0,0,0,0,0,0,0,0,0,0,0,0,0,
0,0,0,0,0,0,0,0,0,0,0,0,0,0,0,0,0,0,0,0,0,0,0,0,0,0,0,0,0,0,0,0,0,0,0,0,0,0,0,0,0,0,0,0,0,0,0,0,0,0,0,0,0,0,0,0,
0,0,0,0,0,0,0,0,0,0,0,0,0,0,0,0,0,0,0,0,0,0,0,0,0,0,0,0,0,0,0,0,0,0,0,0,0,0,0,0,0,0,0,0,0,0,0,0,0,0,0,0,0,0,0,0,
0,0,0,0,0,0,0,0,0,8415,8415,8415,0,0,0,0,0,0,0,0,0,0,0,0,0,0,0,0,0,0,0,0,0,0,0,0,0,0,0,0,0,0,0,0,0,0,0,0,0,0,0,0,0,0,0,0,
0,0,0,0,0,0,0,0,0,8415,8415,8415,0,0,0,0,0,0,0,0,0,0,0,0,0,0,0,0,0,0,0,0,0,0,0,0,0,0,0,0,0,0,0,0,0,0,0,0,0,0,0,0,0,0,0,0,
0,0,0,0,0,0,0,0,0,8415,8415,8415,8415,8415,8415,8415,8415,8415,8415,8415,8415,8415,8415,8415,0,0,0,0,0,0,0,0,0,0,0,0,0,0,0,0,0,0,0,0,0,0,0,0,0,0,0,0,0,0,0,0,
0,0,0,0,0,0,0,0,0,8604,8415,8415,8415,8415,8415,8415,8415,8415,8415,8415,8415,8415,8415,8415,0,0,0,0,0,0,0,0,0,0,0,0,0,0,0,0,0,0,0,0,0,0,0,0,0,0,0,0,0,0,0,0,
0,0,0,0,0,0,0,0,0,0,0,0,0,0,0,0,0,0,0,0,0,0,0,8415,0,0,0,0,0,0,0,0,0,0,0,0,0,0,0,0,0,0,0,0,0,0,0,0,0,0,0,0,0,0,0,0,
0,0,0,0,0,0,0,0,0,0,0,0,0,0,0,0,0,0,0,0,0,0,0,8415,0,0,0,0,0,0,0,0,0,0,0,0,0,0,0,0,0,0,0,0,0,0,0,0,0,0,0,0,0,0,0,0,
0,0,0,0,0,0,0,0,0,0,0,0,0,0,0,0,0,0,0,0,0,0,0,8415,0,0,0,0,0,0,0,0,0,0,0,0,0,0,0,0,0,0,0,0,0,0,0,0,0,0,0,0,0,0,0,0,
0,0,0,0,0,0,0,0,0,0,0,0,0,0,0,0,0,0,0,0,0,0,0,0,0,0,0,0,0,0,0,0,0,0,0,0,0,0,0,0,0,0,0,0,0,0,0,0,0,0,0,0,0,0,0,0,
0,0,0,0,0,0,0,0,0,0,0,0,0,0,0,0,0,0,0,0,0,0,0,0,0,0,0,0,0,0,0,0,0,0,0,0,0,0,0,0,0,0,0,0,0,0,0,0,0,0,0,0,0,0,0,0,
0,0,0,0,0,0,0,0,0,0,0,0,0,0,0,0,0,0,0,0,0,0,0,0,0,0,0,0,0,0,0,0,0,0,0,0,0,0,0,0,0,0,0,0,0,0,0,0,0,0,0,0,0,0,0,0,
0,0,0,0,0,0,0,0,0,0,0,0,0,0,0,0,0,0,0,0,0,0,0,0,0,0,0,0,0,0,0,0,0,0,0,0,0,0,0,0,0,0,0,0,0,0,0,0,0,0,0,0,0,0,0,0,
0,0,0,0,0,0,0,0,0,0,0,0,0,0,0,0,0,0,0,0,0,0,0,0,0,0,0,0,0,0,0,0,0,0,0,0,0,0,0,0,0,0,0,0,0,0,0,0,0,0,0,0,0,0,0,0,
0,0,0,0,0,0,0,0,0,0,0,0,0,0,0,0,0,0,0,0,0,0,0,0,0,0,0,0,0,0,0,0,0,0,0,0,0,0,0,0,0,0,0,0,0,0,0,0,0,0,0,0,0,0,0,0,
0,0,0,0,0,0,0,0,0,0,0,0,0,0,0,0,0,0,0,0,0,0,0,0,0,0,0,0,0,0,0,0,0,0,0,0,0,0,0,0,0,0,0,0,0,0,0,0,0,0,0,0,0,0,0,0,
0,0,0,0,0,0,0,0,0,0,0,0,0,0,0,0,0,0,0,0,0,0,0,0,0,0,0,0,0,0,0,0,0,0,0,0,0,0,0,0,0,0,0,0,0,0,0,0,0,0,0,0,0,0,0,0,
0,0,0,0,0,0,0,0,0,0,0,0,0,0,0,0,0,0,0,0,0,0,0,0,0,0,0,0,0,0,0,0,0,0,0,0,0,0,0,0,0,0,0,0,0,0,0,0,0,0,0,0,0,0,0,0,
0,0,0,0,0,0,0,0,0,0,0,8415,8415,8415,8415,8415,0,0,0,0,0,8415,8415,0,0,0,0,0,0,0,0,0,0,0,0,0,0,0,0,0,0,0,0,0,0,0,0,0,0,0,0,0,0,0,0,0,
0,0,0,0,0,0,0,0,0,0,0,8415,0,0,0,8415,8415,8604,0,0,0,8415,8415,0,0,0,0,0,0,0,0,0,0,0,0,0,0,0,0,0,0,0,0,0,0,0,0,0,0,0,0,0,0,0,0,0,
0,0,0,0,0,0,0,0,0,0,0,8415,0,0,0,8415,8415,8415,8415,8415,8415,8415,8415,0,0,0,0,0,0,0,0,0,0,0,0,0,0,0,0,0,0,0,0,0,0,0,0,0,0,0,0,0,0,0,0,0,
0,0,0,0,0,0,0,0,0,0,0,8415,0,0,0,0,0,0,0,0,0,0,0,0,0,0,0,0,0,0,0,0,0,0,0,0,0,0,0,0,0,0,0,0,0,0,0,0,0,0,0,0,0,0,0,0,
0,0,0,0,0,0,0,0,0,0,0,0,0,0,0,8223,0,0,0,0,0,0,0,0,0,0,0,0,0,0,0,0,0,0,0,0,0,0,0,0,0,0,0,0,0,0,0,0,0,0,0,0,0,0,0,0,
0,0,0,0,0,0,0,0,0,0,0,0,0,0,0,0,0,0,0,0,0,0,0,0,0,0,0,0,0,0,0,0,0,0,0,0,0,0,0,0,0,0,0,0,0,0,0,0,0,0,0,0,0,0,0,0,
0,0,0,0,0,0,0,0,0,0,0,0,0,0,0,0,0,0,0,0,0,0,0,0,0,0,0,0,0,0,0,0,0,0,0,0,0,0,0,0,0,0,0,0,0,0,0,0,0,0,0,0,0,0,0,0,
0,0,0,0,0,0,0,0,0,0,0,0,0,0,0,0,0,0,0,0,0,0,0,0,0,0,0,0,0,0,0,0,0,0,0,0,0,0,0,0,0,0,0,0,0,0,0,0,0,0,0,0,0,0,0,0,
0,0,0,0,8223,0,0,0,0,0,0,0,0,0,0,0,0,0,0,0,0,0,0,0,0,0,0,0,0,0,0,0,0,0,0,0,0,0,0,0,0,0,0,0,0,0,0,0,0,0,0,0,0,0,0,0,
0,0,0,0,0,0,0,8607,8607,8607,0,0,0,0,0,0,0,0,0,0,0,0,0,0,0,0,0,0,0,0,0,0,0,0,0,0,0,0,0,0,0,0,0,0,0,0,0,0,0,0,0,0,0,0,0,0,
0,0,0,0,0,0,0,8607,8607,8607,0,0,0,0,0,0,0,0,0,0,0,0,0,0,0,0,0,0,0,0,0,0,0,0,0,0,0,0,0,0,0,0,0,0,0,0,0,0,0,0,0,0,0,0,0,0,
0,0,0,0,0,0,0,8607,8607,8607,0,0,0,0,0,0,0,0,0,0,0,0,0,0,0,0,0,0,0,0,0,0,0,0,0,0,0,0,0,0,0,0,0,0,0,0,0,0,0,0,0,0,0,0,0,0,
0,0,0,0,0,0,0,8607,8604,8607,0,0,0,0,0,0,0,0,0,0,0,0,0,0,0,0,0,0,0,0,0,0,0,0,0,0,0,0,0,0,0,0,0,0,0,0,0,0,0,0,0,0,0,0,0,0
</data>
 </layer>
 <layer id="2" name="Ice" width="56" height="40">
  <properties>
   <property name="ice" type="bool" value="true"/>
   <property name="walkable" type="bool" value="true"/>
  </properties>
  <data encoding="csv">
0,0,0,0,0,0,0,0,0,0,0,0,0,0,0,0,0,0,0,0,0,0,0,0,0,0,0,0,0,0,0,0,0,0,0,0,0,0,0,0,0,0,0,0,0,0,0,0,0,0,0,0,0,0,0,0,
0,0,0,8606,8606,8606,8606,8606,8606,8606,8606,8606,8606,8606,8606,8606,8606,8606,0,0,0,0,0,0,0,0,0,0,0,0,0,0,0,0,0,0,0,0,0,0,0,0,0,0,0,0,0,0,0,0,0,0,0,0,0,0,
0,0,0,8606,8606,8606,8606,8606,8606,8606,8606,8606,8606,8606,8606,8606,8606,8606,0,0,0,0,0,0,0,0,0,0,0,0,0,0,0,0,0,0,0,0,0,0,0,0,0,0,0,0,0,0,0,0,0,0,0,0,0,0,
0,0,0,8606,8606,8606,8606,8606,8606,8606,8606,8606,8606,8606,8606,8606,8606,8606,0,0,0,0,0,0,0,0,0,0,0,0,0,0,0,0,0,0,0,0,0,0,0,0,0,0,0,0,0,0,0,0,0,0,0,0,0,0,
0,0,0,8606,8606,8606,8606,8606,8606,8606,8606,8606,8606,8606,8606,8606,8606,8606,0,0,0,0,0,0,0,0,0,0,0,0,0,0,0,0,0,0,0,0,0,0,0,0,0,0,0,0,0,0,0,0,0,0,0,0,0,0,
0,0,0,8606,8606,8606,8606,8606,8606,8606,8606,8606,8606,8606,8606,8606,8606,8606,0,0,0,0,0,0,0,0,0,0,0,0,0,0,0,0,0,0,0,0,0,0,0,0,0,0,0,0,0,0,0,0,0,0,0,0,0,0,
0,0,0,8606,8606,8606,8606,8606,8606,8606,8606,8606,8606,8606,8606,8606,8606,8606,0,0,0,0,0,0,0,0,0,0,0,0,0,0,0,0,0,0,0,0,0,0,0,0,0,0,0,0,0,0,0,0,0,0,0,0,0,0,
0,0,0,8606,8606,8606,8606,8606,8606,8606,8606,8606,8606,8606,8606,8606,8606,8606,0,0,0,0,0,0,0,0,0,0,0,0,0,0,0,0,0,0,0,0,0,0,0,0,0,0,0,0,0,0,0,0,0,0,0,0,0,0,
0,0,0,8606,8606,8606,8606,8606,8606,8606,8606,8606,8606,8606,8606,8606,8606,8606,0,0,0,0,0,0,0,0,0,0,0,0,0,0,0,0,0,0,0,0,0,0,0,0,0,0,0,0,0,0,0,0,0,0,0,0,0,0,
0,0,0,8606,8606,8606,8606,8606,8606,8606,8606,8606,8606,8606,8606,8606,8606,8606,0,0,0,0,0,0,0,0,0,0,0,0,0,0,0,0,0,0,0,0,0,0,0,0,0,0,0,0,0,0,0,0,0,0,0,0,0,0,
0,0,0,8606,8606,8606,8606,8606,8606,8606,8606,8606,8606,8606,8606,8606,8606,8606,0,0,0,0,0,0,0,0,0,0,0,0,0,0,0,0,0,0,0,0,0,0,0,0,0,0,0,0,0,0,0,0,0,0,0,0,0,0,
0,0,0,0,0,0,0,0,0,0,0,0,0,0,0,0,0,0,0,0,0,0,0,0,0,0,0,0,0,0,0,0,0,0,0,0,0,0,0,0,0,0,0,0,0,0,0,0,0,0,0,0,0,0,0,0,
0,0,0,0,0,0,0,0,0,0,0,0,0,0,0,0,0,0,0,0,0,0,0,0,0,0,0,0,0,0,0,0,0,0,0,0,0,0,0,0,0,0,0,0,0,0,0,0,0,0,0,0,0,0,0,0,
0,0,0,0,0,0,0,0,0,0,0,0,0,0,0,0,0,0,0,0,0,0,0,0,0,0,0,0,0,0,0,0,0,0,0,0,0,0,0,0,0,0,0,0,0,0,0,0,0,0,0,0,0,0,0,0,
0,0,0,0,0,0,0,0,0,0,0,0,0,0,0,0,0,0,0,0,0,0,0,0,0,0,0,0,0,0,0,0,0,0,0,0,0,0,0,0,0,0,0,0,0,0,0,0,0,0,0,0,0,0,0,0,
0,0,0,0,0,0,0,0,0,0,0,0,0,0,0,0,0,0,0,0,0,0,0,0,0,0,0,0,0,0,0,0,0,0,0,0,0,0,0,0,0,0,0,0,0,0,0,0,0,0,0,0,0,0,0,0,
0,0,0,0,0,0,0,0,0,0,0,0,0,0,0,0,0,0,0,0,0,0,0,0,0,0,0,0,0,0,0,0,0,0,0,0,0,0,0,0,0,0,0,0,0,0,0,0,0,0,0,0,0,0,0,0,
0,0,0,0,0,0,0,0,0,0,0,0,0,0,0,0,0,0,0,0,0,0,0,0,0,0,0,0,0,0,0,0,0,0,0,0,0,0,0,0,0,0,0,0,0,0,0,0,0,0,0,0,0,0,0,0,
0,0,0,0,0,0,0,0,0,0,0,0,0,0,0,0,0,0,8606,8606,8606,8606,8606,8606,8606,8606,8606,8606,8606,0,0,0,0,0,0,0,0,0,0,0,0,0,0,0,0,0,0,0,0,0,0,0,0,0,0,0,
0,0,0,0,0,0,0,0,0,0,0,0,0,0,0,0,0,0,8606,8606,8606,8606,8606,8606,8606,8606,8606,8606,8606,0,0,0,0,0,0,0,0,0,0,0,0,0,0,0,0,0,0,0,0,0,0,0,0,0,0,0,
0,0,0,0,0,0,0,0,0,0,0,0,0,0,0,0,0,0,8606,8606,8606,8606,8606,8606,8606,8606,8606,8606,8606,0,0,0,0,0,0,0,0,0,0,0,0,0,0,0,0,0,0,0,0,0,0,0,0,0,0,0,
0,0,0,0,0,0,0,0,0,0,0,0,0,0,0,0,0,0,8606,8606,8606,8606,8606,8606,8606,8606,8606,8606,8606,0,0,0,0,0,0,0,0,0,0,0,0,0,0,0,0,0,0,0,0,0,0,0,0,0,0,0,
0,0,0,0,0,0,0,0,0,0,0,0,0,0,0,0,0,0,8606,8606,8606,8606,8606,8606,8606,8606,8606,8606,8606,0,0,0,0,0,0,0,0,0,0,0,0,0,0,0,0,0,0,0,0,0,0,0,0,0,0,0,
0,0,0,0,0,0,0,0,0,0,0,0,0,0,0,0,0,0,8606,8606,8606,8606,8606,8606,8606,8606,8606,8606,8606,0,0,0,0,0,0,0,0,0,0,0,0,0,0,0,0,0,0,0,0,0,0,0,0,0,0,0,
0,0,0,0,0,0,0,0,0,0,0,0,0,0,0,0,0,0,8606,8606,8606,8606,8606,8606,8606,8606,8606,8606,8606,0,0,0,0,0,0,0,0,0,0,0,0,0,0,0,0,0,0,0,0,0,0,0,0,0,0,0,
0,0,0,0,0,0,0,0,0,0,0,0,0,0,0,0,0,0,8606,8606,8606,8606,8606,8606,8606,8606,8606,8606,8606,0,0,0,0,0,0,0,0,0,0,0,0,0,0,0,0,0,0,0,0,0,0,0,0,0,0,0,
0,0,0,0,0,0,0,0,0,0,0,0,0,0,0,0,0,0,8606,8606,8606,8606,8606,8606,8606,8606,8606,8606,8606,0,0,0,0,0,0,0,0,0,0,0,0,0,0,0,0,0,0,0,0,0,0,0,0,0,0,0,
0,0,0,0,0,0,0,0,0,0,0,0,0,0,0,0,0,0,0,0,0,0,0,0,0,0,0,0,0,0,0,0,0,0,0,0,0,0,0,0,0,0,0,0,0,0,0,0,0,0,0,0,0,0,0,0,
0,0,0,0,0,0,0,0,0,0,0,0,0,0,0,0,0,0,0,0,0,0,0,0,0,0,0,0,0,0,0,0,0,0,0,0,0,0,0,0,0,0,0,0,0,0,0,0,0,0,0,0,0,0,0,0,
0,0,0,0,0,0,0,0,0,0,0,0,0,0,0,0,0,0,0,0,0,0,0,0,0,0,0,0,0,0,0,0,0,0,0,0,0,0,0,0,0,0,0,0,0,0,0,0,0,0,0,0,0,0,0,0,
0,0,0,0,0,0,0,0,0,0,0,0,0,0,0,0,0,0,0,0,0,0,0,0,0,0,0,0,0,0,0,0,0,0,0,0,0,0,0,0,0,0,0,0,0,0,0,0,0,0,0,0,0,0,0,0,
0,0,0,0,0,0,8606,8606,8606,8606,0,8606,0,8606,0,0,0,0,0,0,0,0,0,0,0,0,0,0,0,0,0,0,0,0,0,0,0,0,0,0,0,0,0,0,0,0,0,0,0,0,0,0,0,0,0,0,
0,0,0,0,0,0,8606,8606,8606,0,8606,8606,8606,8606,0,0,0,0,0,0,0,0,0,0,0,0,0,0,0,0,0,0,0,0,0,0,0,0,0,0,0,0,0,0,0,0,0,0,0,0,0,0,0,0,0,0,
0,0,0,0,0,0,8606,8606,8606,8606,8606,8606,8606,8606,0,0,0,0,0,0,0,0,0,0,0,0,0,0,0,0,0,0,0,0,0,0,0,0,0,0,0,0,0,0,0,0,0,0,0,0,0,0,0,0,0,0,
0,0,0,0,0,0,0,8606,8606,0,8606,8606,8606,8606,0,0,0,0,0,0,0,0,0,0,0,0,0,0,0,0,0,0,0,0,0,0,0,0,0,0,0,0,0,0,0,0,0,0,0,0,0,0,0,0,0,0,
0,0,0,0,0,0,8606,8606,8606,8606,8606,8606,0,8606,0,0,0,0,0,0,0,0,0,0,0,0,0,0,0,0,0,0,0,0,0,0,0,0,0,0,0,0,0,0,0,0,0,0,0,0,0,0,0,0,0,0,
0,0,0,0,0,0,0,0,0,0,0,0,0,0,0,0,0,0,0,0,0,0,0,0,0,0,0,0,0,0,0,0,0,0,0,0,0,0,0,0,0,0,0,0,0,0,0,0,0,0,0,0,0,0,0,0,
0,0,0,0,0,0,0,0,0,0,0,0,0,0,0,0,0,0,0,0,0,0,0,0,0,0,0,0,0,0,0,0,0,0,0,0,0,0,0,0,0,0,0,0,0,0,0,0,0,0,0,0,0,0,0,0,
0,0,0,0,0,0,0,0,0,0,0,0,0,0,0,0,0,0,0,0,0,0,0,0,0,0,0,0,0,0,0,0,0,0,0,0,0,0,0,0,0,0,0,0,0,0,0,0,0,0,0,0,0,0,0,0,
0,0,0,0,0,0,0,0,0,0,0,0,0,0,0,0,0,0,0,0,0,0,0,0,0,0,0,0,0,0,0,0,0,0,0,0,0,0,0,0,0,0,0,0,0,0,0,0,0,0,0,0,0,0,0,0
</data>
 </layer>
 <layer id="9" name="Portal Visuals" width="56" height="40">
  <data encoding="csv">
0,0,0,0,0,0,0,0,0,0,0,0,0,0,0,0,0,0,0,0,0,0,0,0,0,0,0,0,0,0,0,0,0,0,0,0,0,0,0,0,0,0,0,0,0,0,0,0,0,0,0,0,0,0,0,0,
0,0,0,0,0,0,0,0,0,0,0,0,0,0,0,0,0,0,0,0,0,0,0,0,0,0,0,0,0,0,0,0,0,0,0,0,0,0,0,0,0,0,0,0,0,0,0,0,0,0,0,0,0,0,0,0,
0,0,0,0,0,0,0,0,0,0,13607,0,0,0,0,0,0,0,0,0,0,0,0,0,0,0,0,0,0,0,0,0,0,0,0,0,0,0,0,0,0,0,0,0,0,0,0,0,0,0,0,0,0,0,0,0,
0,0,0,0,0,13605,0,0,0,0,0,0,0,0,0,0,0,0,0,0,0,0,0,0,0,0,0,0,0,0,0,0,0,0,0,0,0,0,0,0,0,0,0,0,0,0,0,0,0,0,0,0,0,0,0,0,
0,0,0,0,0,0,0,0,0,0,0,0,0,0,0,0,0,0,0,0,0,0,0,0,0,0,0,0,0,0,0,0,0,0,0,0,0,0,0,0,0,0,0,0,0,0,0,0,0,0,0,0,0,0,0,0,
0,0,0,0,0,0,0,0,0,0,0,0,0,0,0,0,0,0,0,0,0,0,0,0,0,0,0,0,0,0,0,0,0,0,0,0,0,0,0,0,0,0,0,0,0,0,0,0,0,0,0,0,0,0,0,0,
0,0,0,0,0,0,0,0,0,0,0,13605,0,0,0,0,0,0,0,0,0,0,0,0,0,0,0,0,0,0,0,0,0,0,0,0,0,0,0,0,0,0,0,0,0,0,0,0,0,0,0,0,0,0,0,0,
0,0,0,0,0,0,0,0,0,0,0,0,0,0,0,0,0,0,0,0,0,0,0,0,0,0,0,0,0,0,0,0,0,0,0,0,0,0,0,0,0,0,0,0,0,0,0,0,0,0,0,0,0,0,0,0,
0,0,0,0,0,0,0,0,0,13606,0,0,0,0,0,0,0,0,0,0,0,0,0,0,0,0,0,0,0,0,0,0,0,0,0,0,0,0,0,0,0,0,0,0,0,0,0,0,0,0,0,0,0,0,0,0,
0,0,0,0,0,0,0,0,0,0,0,0,0,0,13606,0,0,0,0,0,0,0,0,0,0,0,0,0,0,0,0,0,0,0,0,0,0,0,0,0,0,0,0,0,0,0,0,0,0,0,0,0,0,0,0,0,
0,0,0,13607,0,0,0,0,0,0,0,0,0,0,0,0,0,0,0,0,0,0,0,0,0,0,0,0,0,0,0,0,0,0,0,0,0,0,0,0,0,0,0,0,0,0,0,0,0,0,0,0,0,0,0,0,
0,0,0,0,0,0,0,0,0,0,0,0,0,0,0,0,0,0,0,0,0,0,0,0,0,0,0,0,0,0,0,0,0,0,0,0,0,0,0,0,0,0,0,0,0,0,0,0,0,0,0,0,0,0,0,0,
0,0,0,0,0,0,0,0,0,0,0,0,0,0,0,0,0,0,0,0,0,0,0,0,0,0,0,0,0,0,0,0,0,0,0,0,0,0,0,0,0,0,0,0,0,0,0,0,0,0,0,0,0,0,0,0,
0,0,0,0,0,0,0,0,0,0,0,0,0,0,0,0,0,0,0,0,0,0,0,0,0,0,0,0,0,0,0,0,0,0,0,0,0,0,0,0,0,0,0,0,0,0,0,0,0,0,0,0,0,0,0,0,
0,0,0,0,0,0,0,0,0,0,0,0,0,0,0,0,0,0,0,0,0,0,0,0,0,0,0,0,0,0,0,0,0,0,0,0,0,0,0,0,0,0,0,0,0,0,0,0,0,0,0,0,0,0,0,0,
0,0,0,0,0,0,0,0,0,0,0,0,0,0,0,0,0,0,0,0,0,0,0,0,0,0,0,0,0,0,0,0,0,0,0,0,0,0,0,0,0,0,0,0,0,0,0,0,0,0,0,0,0,0,0,0,
0,0,0,0,0,0,0,0,0,0,0,0,0,0,0,0,0,0,0,0,0,0,0,0,0,0,0,0,0,0,0,0,0,0,0,0,0,0,0,0,0,0,0,0,0,0,0,0,0,0,0,0,0,0,0,0,
0,0,0,0,0,0,0,0,0,0,0,0,0,0,0,0,0,0,0,0,0,0,0,0,0,0,0,0,0,0,0,0,0,0,0,0,0,0,0,0,0,0,0,0,0,0,0,0,0,0,0,0,0,0,0,0,
0,0,0,0,0,0,0,0,0,0,0,0,0,0,0,0,0,0,0,0,0,0,0,0,0,0,0,0,0,0,0,0,0,0,0,0,0,0,0,0,0,0,0,0,0,0,0,0,0,0,0,0,0,0,0,0,
0,0,0,0,0,0,0,0,0,0,0,0,0,0,0,0,0,0,0,0,0,0,0,13605,0,0,0,0,0,0,0,0,0,0,0,0,0,0,0,0,0,0,0,0,0,0,0,0,0,0,0,0,0,0,0,0,
0,0,0,0,0,0,0,0,0,0,0,0,0,0,0,0,0,0,0,0,0,0,0,0,0,0,0,0,0,0,0,0,0,0,0,0,0,0,0,0,0,0,0,0,0,0,0,0,0,0,0,0,0,0,0,0,
0,0,0,0,0,0,0,0,0,0,0,0,0,0,0,0,0,0,0,0,0,0,0,0,0,0,0,0,0,0,0,0,0,0,0,0,0,0,0,0,0,0,0,0,0,0,0,0,0,0,0,0,0,0,0,0,
0,0,0,0,0,0,0,0,0,0,0,0,0,0,0,0,0,0,0,0,0,0,0,0,0,0,0,0,0,0,0,0,0,0,0,0,0,0,0,0,0,0,0,0,0,0,0,0,0,0,0,0,0,0,0,0,
0,0,0,0,0,0,0,0,0,0,0,0,0,0,0,0,0,0,13605,0,0,0,0,0,0,0,0,0,0,0,0,0,0,0,0,0,0,0,0,0,0,0,0,0,0,0,0,0,0,0,0,0,0,0,0,0,
0,0,0,0,0,0,0,0,0,0,0,0,0,0,0,0,0,0,0,0,0,0,0,0,0,0,0,0,0,0,0,0,0,0,0,0,0,0,0,0,0,0,0,0,0,0,0,0,0,0,0,0,0,0,0,0,
0,0,0,0,0,0,0,0,0,0,0,0,0,0,0,0,0,0,0,0,0,0,0,0,0,0,0,0,0,0,0,0,0,0,0,0,0,0,0,0,0,0,0,0,0,0,0,0,0,0,0,0,0,0,0,0,
0,0,0,0,0,0,0,0,0,0,0,0,0,0,0,0,0,0,0,0,0,0,0,0,0,0,0,0,0,0,0,0,0,0,0,0,0,0,0,0,0,0,0,0,0,0,0,0,0,0,0,0,0,0,0,0,
0,0,0,0,0,0,0,0,0,0,0,0,0,0,0,0,0,0,0,0,0,0,0,0,0,0,0,0,0,0,0,0,0,0,0,0,0,0,0,0,0,0,0,0,0,0,0,0,0,0,0,0,0,0,0,0,
0,0,0,0,0,0,0,0,0,0,0,0,0,0,0,0,0,0,0,0,0,0,0,0,0,0,0,0,0,0,0,0,0,0,0,0,0,0,0,0,0,0,0,0,0,0,0,0,0,0,0,0,0,0,0,0,
0,0,0,0,0,0,0,0,0,0,0,0,0,0,0,0,0,0,0,0,0,0,0,0,0,0,0,0,0,0,0,0,0,0,0,0,0,0,0,0,0,0,0,0,0,0,0,0,0,0,0,0,0,0,0,0,
0,0,0,0,0,0,0,0,0,0,0,0,0,0,0,0,0,0,0,0,0,0,0,0,0,0,0,0,0,0,0,0,0,0,0,0,0,0,0,0,0,0,0,0,0,0,0,0,0,0,0,0,0,0,0,0,
0,0,0,0,0,0,0,0,0,0,0,0,0,0,13605,0,0,0,0,0,0,0,0,0,0,0,0,0,0,0,0,0,0,0,0,0,0,0,0,0,0,0,0,0,0,0,0,0,0,0,0,0,0,0,0,0,
0,0,0,0,0,0,0,0,0,0,0,0,0,0,0,0,0,0,0,0,0,0,0,0,0,0,0,0,0,0,0,0,0,0,0,0,0,0,0,0,0,0,0,0,0,0,0,0,0,0,0,0,0,0,0,0,
0,0,0,0,0,0,0,0,0,0,0,0,0,0,0,0,0,0,0,0,0,0,0,0,0,0,0,0,0,0,0,0,0,0,0,0,0,0,0,0,0,0,0,0,0,0,0,0,0,0,0,0,0,0,0,0,
0,0,0,0,0,0,0,0,0,0,0,0,0,0,0,0,0,0,0,0,0,0,0,0,0,0,0,0,0,0,0,0,0,0,0,0,0,0,0,0,0,0,0,0,0,0,0,0,0,0,0,0,0,0,0,0,
0,0,0,0,0,13605,0,0,0,0,0,0,0,0,0,0,0,0,0,0,0,0,0,0,0,0,0,0,0,0,0,0,0,0,0,0,0,0,0,0,0,0,0,0,0,0,0,0,0,0,0,0,0,0,0,0,
0,0,0,0,0,0,0,0,0,0,0,0,0,0,0,0,0,0,0,0,0,0,0,0,0,0,0,0,0,0,0,0,0,0,0,0,0,0,0,0,0,0,0,0,0,0,0,0,0,0,0,0,0,0,0,0,
0,0,0,0,0,0,0,0,0,0,0,0,0,0,0,0,0,0,0,0,0,0,0,0,0,0,0,0,0,0,0,0,0,0,0,0,0,0,0,0,0,0,0,0,0,0,0,0,0,0,0,0,0,0,0,0,
0,0,0,0,0,0,0,0,0,0,0,0,0,0,0,0,0,0,0,0,0,0,0,0,0,0,0,0,0,0,0,0,0,0,0,0,0,0,0,0,0,0,0,0,0,0,0,0,0,0,0,0,0,0,0,0,
0,0,0,0,0,0,0,0,0,0,0,0,0,0,0,0,0,0,0,0,0,0,0,0,0,0,0,0,0,0,0,0,0,0,0,0,0,0,0,0,0,0,0,0,0,0,0,0,0,0,0,0,0,0,0,0
</data>
 </layer>
 <layer id="3" name="Obstacles" width="56" height="40">
  <properties>
   <property name="portal 5" type="int" value="0"/>
   <property name="walkable" type="bool" value="false"/>
  </properties>
  <data encoding="csv">
8217,8218,8219,8223,8223,8223,8223,8223,8223,8223,8223,8223,8223,8223,8223,8223,8223,8223,8217,8218,8219,0,0,0,0,0,0,0,0,0,0,0,0,0,0,0,0,0,0,0,0,0,0,0,0,0,0,0,0,0,0,0,0,0,0,0,
8409,8410,8411,0,0,0,0,0,0,0,0,0,0,0,0,0,0,0,8409,8410,8411,0,0,0,0,0,0,0,0,0,0,0,0,0,0,0,0,0,0,0,0,0,0,0,0,0,0,0,0,0,0,0,0,0,0,0,
8409,8410,8411,8222,0,0,0,0,0,0,0,0,0,0,0,0,0,0,8409,8410,8411,0,0,0,0,0,0,0,0,0,0,0,0,0,0,0,0,0,0,0,0,0,0,0,0,0,0,0,0,0,0,0,0,0,0,0,
8409,8410,8411,0,0,0,0,0,0,0,0,0,0,0,0,0,0,0,8601,8602,8603,0,0,0,0,0,0,0,0,0,0,0,0,0,0,0,0,0,0,0,0,0,0,0,0,0,0,0,0,0,0,0,0,0,0,0,
8409,8410,8411,0,0,0,0,0,0,0,0,0,0,0,0,0,0,8222,0,0,0,0,0,0,0,0,0,0,0,0,0,0,0,0,0,0,0,0,0,0,0,0,0,0,0,0,0,0,0,0,0,0,0,0,0,0,
8409,8410,8411,8222,0,0,0,0,0,0,8222,0,0,0,0,0,0,0,8217,8218,8219,0,0,0,0,0,0,0,0,0,0,0,0,0,0,0,0,0,0,0,0,0,0,0,0,0,0,0,0,0,0,0,0,0,0,0,
8409,8410,8411,0,0,0,8222,0,0,0,0,0,0,0,0,0,0,0,8409,8218,8411,0,0,0,0,0,0,0,0,0,0,0,0,0,0,0,0,0,0,0,0,0,0,0,0,0,0,0,0,0,0,0,0,0,0,0,
8409,8410,8411,0,0,0,0,0,0,0,0,0,0,0,8222,0,0,0,8409,8218,8411,0,0,0,0,0,0,0,0,0,0,0,0,0,0,0,0,0,0,0,0,0,0,0,0,0,0,0,0,0,0,0,0,0,0,0,
8409,8410,8411,0,0,0,0,0,0,0,0,0,0,0,0,0,0,0,8409,8410,8411,0,0,0,0,0,0,0,0,0,0,0,0,0,0,0,0,0,0,0,0,0,0,0,0,0,0,0,0,0,0,0,0,0,0,0,
8409,8410,8411,0,0,0,0,0,0,0,0,0,0,0,0,0,0,0,8409,8410,8411,0,0,0,0,0,0,0,0,0,0,0,0,0,0,0,0,0,0,0,0,0,0,0,0,0,0,0,0,0,0,0,0,0,0,0,
8409,8410,8411,0,0,0,0,0,0,0,0,0,8222,0,0,0,0,0,8601,8602,8603,0,0,0,0,0,0,0,0,0,0,0,0,0,0,0,0,0,0,0,0,0,0,0,0,0,0,0,0,0,0,0,0,0,0,0,
8601,8602,8603,8217,8218,8218,8218,8218,8219,0,0,0,8217,8218,8218,8218,8218,8218,8218,8218,8218,8218,8218,8219,8223,8223,8223,8223,8223,8223,8223,8223,8223,8223,8223,8223,0,0,0,0,0,0,0,0,0,0,0,0,0,0,0,0,0,0,0,0,
8223,8223,8223,8409,8410,8410,8410,8410,8411,0,0,0,8409,8410,8410,8410,8410,8410,8410,8410,8410,8410,8410,8411,8223,8223,8223,8223,8223,8223,8223,8223,8223,8223,8223,8223,0,0,0,0,0,0,0,0,0,0,0,0,0,0,0,0,0,0,0,0,
8223,8223,8223,8409,8410,8410,8410,8410,8411,12396,0,0,8601,8602,8602,8602,8602,8602,8602,8602,8602,8602,8602,8603,8223,8223,8223,8223,8223,8223,8223,8223,8223,8223,8223,8223,0,0,0,0,0,0,0,0,0,0,0,0,0,0,0,0,0,0,0,0,
8223,8223,8223,8409,8410,8410,8410,8410,8411,0,0,0,0,0,0,0,0,0,0,0,0,0,0,0,8217,8218,8218,8218,8219,8217,8218,8218,8219,8223,8223,8223,0,0,0,0,0,0,0,0,0,0,0,0,0,0,0,0,0,0,0,0,
8223,8223,8223,8409,8410,8410,8410,8410,8411,8217,8218,8218,8218,8218,8218,8218,8218,8218,8218,8218,8218,8218,8219,0,8409,8410,8410,8410,8411,8409,8410,8410,8411,8223,8223,8223,0,0,0,0,0,0,0,0,0,0,0,0,0,0,0,0,0,0,0,0,
8223,8223,8223,8409,8410,8410,8410,8410,8411,8409,8410,8410,8410,8410,8410,8410,8410,8410,8410,8410,8410,8410,8411,0,8409,8410,8410,8410,8411,8409,8410,8410,8411,8223,8223,8223,0,0,0,0,0,0,0,0,0,0,0,0,0,0,0,0,0,0,0,0,
8223,8223,8223,8601,8602,8602,8602,8602,8603,8601,8602,8602,8602,8602,8602,8602,8602,8602,8602,8602,8602,8602,8603,0,8601,8602,8602,8602,8603,8409,8410,8410,8411,8223,8223,8223,0,0,0,0,0,0,0,0,0,0,0,0,0,0,0,0,0,0,0,0,
8223,8223,8223,8223,8223,8223,8223,8223,8223,8223,8223,8217,8218,8218,8218,8218,8218,8219,0,0,0,0,0,0,0,0,0,0,0,8409,8410,8410,8411,8223,8223,8223,0,0,0,0,0,0,0,0,0,0,0,0,0,0,0,0,0,0,0,0,
8223,8223,8223,8223,8223,8223,8223,8223,8223,8223,8223,8409,8410,8410,8410,8410,8410,8411,0,0,0,0,8222,0,8222,0,0,0,0,8409,8410,8410,8411,8223,8223,8223,0,0,0,0,0,0,0,0,0,0,0,0,0,0,0,0,0,0,0,0,
8223,8223,8223,8223,8223,8223,8223,8223,8223,8223,8223,8409,8410,8410,8410,8410,8410,8411,0,0,0,0,0,0,0,8222,0,0,0,8409,8410,8410,8411,8223,8223,8223,0,0,0,0,0,0,0,0,0,0,0,0,0,0,0,0,0,0,0,0,
8223,8223,8223,8223,8223,8223,8223,8223,8223,8223,8223,8409,8410,8410,8410,8410,8410,8411,0,0,0,8222,0,0,0,0,0,0,0,8409,8410,8410,8411,8223,8223,8223,0,0,0,0,0,0,0,0,0,0,0,0,0,0,0,0,0,0,0,0,
8223,8223,8223,8223,8223,8223,8223,8223,8223,8223,8223,8409,8410,8410,8410,8410,8410,8411,0,0,0,0,0,0,0,0,0,8222,0,8409,8410,8410,8411,8223,8223,8223,0,0,0,0,0,0,0,0,0,0,0,0,0,0,0,0,0,0,0,0,
8223,8223,8223,8223,8223,8223,8223,8223,8223,8223,8223,8409,8410,8410,8410,8410,8218,8411,0,0,0,0,8222,0,0,0,0,0,0,8409,8410,8410,8411,8223,8223,8223,0,0,0,0,0,0,0,0,0,0,0,0,0,0,0,0,0,0,0,0,
8223,8223,8223,8223,8223,8223,8223,8223,8223,8223,8223,8409,8410,8410,8410,8410,8410,8411,0,0,8222,0,0,0,0,0,8222,0,0,8409,8410,8410,8411,8223,8223,8223,0,0,0,0,0,0,0,0,0,0,0,0,0,0,0,0,0,0,0,0,
8223,8223,8223,8223,8223,8223,8223,8223,8223,8223,8223,8409,8410,8410,8410,8410,8410,8411,0,0,8222,0,0,0,8222,0,0,0,0,8409,8410,8410,8411,8223,8223,8223,0,0,0,0,0,0,0,0,0,0,0,0,0,0,0,0,0,0,0,0,
8223,8223,8223,8223,8223,8223,8223,8223,8223,8223,8223,8601,8602,8602,8602,8602,8602,8603,0,0,0,0,0,8222,0,0,0,0,0,8409,8410,8410,8411,8223,8223,8223,0,0,0,0,0,0,0,0,0,0,0,0,0,0,0,0,0,0,0,0,
8223,8223,8223,8217,8218,8218,8218,8218,8218,8218,8219,0,0,0,0,0,8223,8223,8223,8223,8223,0,0,8217,8218,8218,8218,8218,8219,8409,8410,8410,8411,8223,8223,8223,0,0,0,0,0,0,0,0,0,0,0,0,0,0,0,0,0,0,0,0,
8223,8223,8223,8409,8410,8410,8410,8410,8410,8410,8411,0,8217,8218,8219,0,12396,0,8223,8223,8223,0,0,8409,8410,8410,8410,8410,8411,8409,8410,8410,8411,8223,8223,8223,0,0,0,0,0,0,0,0,0,0,0,0,0,0,0,0,0,0,0,0,
8223,8223,8223,8409,8410,8410,8410,8410,8410,8410,8411,0,8409,8410,8411,0,0,0,0,0,0,0,0,8409,8410,8410,8410,8410,8411,8409,8410,8410,8411,8223,8223,8223,0,0,0,0,0,0,0,0,0,0,0,0,0,0,0,0,0,0,0,0,
8223,8223,8223,8601,8602,8602,8602,8602,8602,8602,8603,0,8601,8602,8603,8223,8223,8223,8223,8223,8223,8223,8223,8601,8602,8602,8602,8602,8603,8601,8602,8602,8603,8223,8223,8223,0,0,0,0,0,0,0,0,0,0,0,0,0,0,0,0,0,0,0,0,
8223,8223,8223,8217,8218,8219,0,0,0,0,8222,0,8222,0,0,8223,8223,8223,8223,8223,8223,8223,8223,8223,8223,8223,8223,8223,8223,8223,8223,8223,8223,8223,8223,8223,0,0,0,0,0,0,0,0,0,0,0,0,0,0,0,0,0,0,0,0,
8223,8223,8223,8409,8410,8411,0,0,0,8222,0,0,0,0,8217,8218,8219,8223,8223,8223,8223,8223,8223,8223,8223,8223,8223,8223,8223,8223,8223,8223,8223,8223,8223,8223,0,0,0,0,0,0,0,0,0,0,0,0,0,0,0,0,0,0,0,0,
8223,8223,8223,8409,8410,8411,0,0,0,0,0,0,0,0,8409,8410,8411,8223,8223,8223,8223,8223,8223,8223,8223,8223,8223,8223,8223,8223,8223,8223,8223,8223,8223,8223,0,0,0,0,0,0,0,0,0,0,0,0,0,0,0,0,0,0,0,0,
8223,8223,8223,8601,8602,8603,8222,0,0,8222,0,0,0,0,8409,8410,8411,8223,8223,8223,8223,8223,8223,8223,8223,8223,8223,8223,8223,8223,8223,8223,8223,8223,8223,8223,0,0,0,0,0,0,0,0,0,0,0,0,0,0,0,0,0,0,0,0,
8223,8223,8223,8223,8223,0,0,0,0,0,0,0,8222,0,8601,8602,8603,8223,8223,8223,8223,8223,8223,8223,8223,8223,8223,8223,8223,8223,8223,8223,8223,8223,8223,8223,0,0,0,0,0,0,0,0,0,0,0,0,0,0,0,0,0,0,0,0,
8223,8223,8223,8223,8217,8218,8219,8223,0,8223,8217,8218,8218,8218,8219,8223,8223,8223,8223,8223,8223,8223,8223,8223,8223,8223,8223,8223,8223,8223,8223,8223,8223,8223,8223,8223,0,0,0,0,0,0,0,0,0,0,0,0,0,0,0,0,0,0,0,0,
8223,8223,8223,8223,8409,8410,8411,0,0,12396,8409,8410,8410,8410,8411,8223,8223,8223,8223,8223,8223,8223,8223,8223,8223,8223,8223,8223,8223,8223,8223,8223,8223,8223,8223,8223,0,0,0,0,0,0,0,0,0,0,0,0,0,0,0,0,0,0,0,0,
8223,8223,8223,8223,8409,8410,8411,0,0,0,8409,8410,8410,8410,8411,8223,8223,8223,8223,8223,8223,8223,8223,8223,8223,8223,8223,8223,8223,8223,8223,8223,8223,8223,8223,8223,0,0,0,0,0,0,0,0,0,0,0,0,0,0,0,0,0,0,0,0,
8223,8223,8223,8223,8601,8602,8603,0,0,0,8601,8602,8602,8602,8603,8223,8223,8223,8223,8223,8223,8223,8223,8223,8223,8223,8223,8223,8223,8223,8223,8223,8223,8223,8223,8223,0,0,0,0,0,0,0,0,0,0,0,0,0,0,0,0,0,0,0,0
</data>
 </layer>
 <objectgroup color="#ff0000" id="7" name="Warp">
  <object id="10" x="128" y="624" width="16" height="16">
   <properties>
    <property name="map" value="town"/>
    <property name="spawn" value="gym1-exit"/>
   </properties>
  </object>
  <object id="29" x="272" y="448" width="16" height="16">
   <properties>
    <property name="map" value="town"/>
    <property name="spawn" value="gym1-exit"/>
   </properties>
  </object>
  <object id="30" x="144" y="224" width="16" height="16">
   <properties>
    <property name="map" value="town"/>
    <property name="spawn" value="gym1-exit"/>
   </properties>
  </object>
 </objectgroup>
 <objectgroup color="#ff00ff" id="8" name="Spawns">
  <object id="13" x="128" y="608" width="16" height="16">
   <properties>
    <property name="facing" value="up"/>
    <property name="spawn" value="gym1-entrance"/>
   </properties>
  </object>
 </objectgroup>
 <objectgroup color="#ff0000" id="6" name="Actables">
  <properties>
   <property name="message" value="Caution: Slippery."/>
   <property name="name" value="Sign"/>
  </properties>
  <object id="8" x="144" y="592" width="16" height="16"/>
  <object id="15" x="256" y="448" width="16" height="16">
   <properties>
    <property name="message" value="Escape hatch"/>
    <property name="name" value="Sign"/>
   </properties>
  </object>
  <object id="31" x="144" y="208" width="16" height="16">
   <properties>
    <property name="message" value="Escape hatch"/>
    <property name="name" value="Sign"/>
   </properties>
  </object>
 </objectgroup>
 <objectgroup color="#ffff00" id="5" name="Portals">
  <properties>
   <property name="directionalExit" type="bool" value="true"/>
  </properties>
  <object id="6" x="80" y="560" width="16" height="16">
   <properties>
    <property name="portal" type="int" value="1"/>
   </properties>
  </object>
  <object id="7" x="224" y="496" width="16" height="16">
   <properties>
    <property name="portal" type="int" value="1"/>
   </properties>
  </object>
  <object id="18" x="288" y="368" width="16" height="16">
   <properties>
    <property name="portal" type="int" value="2"/>
   </properties>
  </object>
  <object id="19" x="368" y="304" width="16" height="16">
   <properties>
    <property name="portal" type="int" value="2"/>
   </properties>
  </object>
  <object id="20" x="48" y="160" width="16" height="16">
   <properties>
    <property name="portal" type="int" value="3"/>
   </properties>
  </object>
  <object id="21" x="160" y="32" width="16" height="16">
   <properties>
    <property name="portal" type="int" value="3"/>
   </properties>
  </object>
  <object id="22" x="80" y="48" width="16" height="16">
   <properties>
    <property name="portal" type="int" value="4"/>
   </properties>
  </object>
  <object id="24" x="176" y="96" width="16" height="16">
   <properties>
    <property name="portal" type="int" value="4"/>
   </properties>
  </object>
  <object id="25" x="144" y="128" width="16" height="16">
   <properties>
    <property name="portal" type="int" value="5"/>
   </properties>
  </object>
  <object id="26" x="224" y="144" width="16" height="16">
   <properties>
    <property name="portal" type="int" value="5"/>
   </properties>
  </object>
 </objectgroup>
 <objectgroup color="#aa00ff" id="4" name="Wild" visible="0">
  <properties>
   <property name="wild" type="bool" value="true"/>
  </properties>
  <object id="1" x="176" y="432" width="192" height="64">
   <properties>
    <property name="wild" type="bool" value="true"/>
   </properties>
  </object>
  <object id="16" x="144" y="176" width="240" height="112"/>
 </objectgroup>
</map>
