<?xml version="1.0" encoding="UTF-8"?>
<map version="1.10" tiledversion="1.12.2" orientation="orthogonal" renderorder="right-down" width="34" height="40" tilewidth="16" tileheight="16" infinite="0" nextlayerid="9" nextobjectid="102">
 <tileset firstgid="1" source="pokemon.tsx"/>
 <tileset firstgid="1317" source="indoortileset.tsx"/>
 <tileset firstgid="13605" source="PortalTileset.tsx"/>
 <tileset firstgid="13609" source="npcs-compact-16.tsx"/>
 <layer id="1" name="Floor" width="34" height="40">
  <data encoding="csv">
0,0,0,0,0,0,0,0,0,0,0,0,0,0,0,0,0,0,0,0,0,0,0,0,0,0,0,0,0,0,0,0,0,0,
0,0,0,0,0,0,0,0,0,0,0,0,0,0,0,0,0,0,12973,12974,12974,12974,12974,12975,0,0,0,0,0,0,0,0,0,0,
0,0,0,0,0,0,0,0,0,0,0,0,0,0,0,0,0,0,13357,13358,13359,0,0,13167,0,0,0,0,0,0,0,0,0,0,
0,0,0,0,0,0,0,0,0,0,0,0,0,0,0,0,1183,1238,1238,1238,1238,1239,0,13167,0,0,0,0,0,0,0,0,0,0,
0,0,0,0,0,0,0,0,0,0,0,0,0,0,0,0,1182,1291,1291,1291,1291,1210,0,13167,0,0,0,0,0,0,0,0,0,0,
0,0,0,0,0,0,0,12973,12974,12974,12974,12975,0,0,0,0,1182,1291,1291,1291,1291,1210,0,13167,0,0,0,0,0,0,0,0,0,0,
0,0,0,0,0,0,0,13165,0,0,0,13167,0,0,0,0,1182,1291,1291,1291,1291,1210,0,13167,0,0,0,0,0,0,0,0,0,0,
0,0,0,0,0,0,0,13165,0,0,0,13167,0,0,0,0,1182,1291,1291,1291,1291,1210,0,13167,0,0,0,0,0,0,0,0,0,0,
0,0,0,0,0,0,12973,13166,12975,0,0,13167,0,0,0,0,1211,1266,1266,1266,1266,1267,0,13167,0,0,0,0,0,0,0,0,0,0,
0,0,0,0,0,0,13165,13166,13167,0,0,13165,0,0,0,0,0,0,12973,12974,12975,0,0,13167,0,0,0,0,0,0,0,0,0,0,
0,0,0,0,0,13357,13357,13358,13359,0,0,13357,13358,13358,13358,13358,13358,13358,13358,13358,13359,0,0,13167,0,0,0,0,0,0,0,0,0,0,
0,0,0,1183,1238,1238,1238,1238,1239,0,0,0,0,0,0,0,0,0,0,0,0,0,0,13167,0,0,0,0,0,0,0,0,0,0,
0,0,0,1182,1291,1291,1291,1291,1210,0,0,0,0,0,0,0,0,0,0,0,0,0,0,13167,0,0,0,0,0,0,0,0,0,0,
0,0,0,1182,1291,1291,1291,1291,1210,0,0,0,0,0,0,0,12973,13166,13358,13358,13358,13358,13358,13359,0,0,0,0,0,0,0,0,0,0,
0,0,0,1182,1291,1291,1291,1291,1210,0,0,0,0,0,0,0,13165,13166,0,0,0,0,0,0,0,0,0,0,0,0,0,0,0,0,
0,0,0,1182,1291,1291,1291,1291,1210,0,0,0,0,0,0,0,13165,13166,1183,1238,1238,1238,1238,1238,1238,1238,1238,1239,0,0,0,0,0,0,
0,0,0,1211,1266,1266,1266,1266,1267,0,0,0,0,0,0,0,13165,13166,1182,1291,1291,1291,1291,1291,1291,1291,1291,1210,0,0,0,0,0,0,
0,0,0,0,0,0,13165,0,0,0,0,0,0,0,0,0,10674,13358,1182,1291,1291,1291,1291,1291,1291,1291,1291,1210,0,0,0,0,0,0,
0,0,0,0,0,0,13165,12974,12974,12975,0,0,0,0,0,0,0,0,1182,1291,1291,1291,1291,1291,1291,1291,1291,1210,0,0,0,0,0,0,
0,0,0,0,0,0,10674,13358,13358,13166,0,0,0,0,0,0,0,0,1182,1291,1291,1291,1291,1291,1291,1291,1291,1210,0,0,0,0,0,0,
0,0,0,0,0,0,0,0,0,13166,0,0,0,0,0,0,0,0,1182,1291,1291,1291,1291,1291,1291,1291,1291,1210,0,0,0,0,0,0,
0,0,0,0,0,0,0,0,0,13166,0,0,0,0,0,0,0,0,1182,1291,1291,1291,1291,1291,1291,1291,1291,1210,0,0,0,0,0,0,
0,0,0,0,0,0,0,0,0,13358,0,0,0,0,0,0,0,0,1211,1266,1266,1266,1266,1266,1266,1266,1266,1267,0,0,0,0,0,0,
0,0,0,0,0,0,0,1183,1238,1238,1238,1239,0,0,0,0,0,0,0,0,0,0,12973,12974,12975,0,0,0,0,0,0,0,0,0,
0,0,0,0,0,0,0,1182,1291,1291,1291,1210,0,0,0,0,0,0,0,0,0,0,13165,13166,13167,0,0,0,0,0,0,0,0,0,
0,0,0,0,0,0,0,1211,1266,1266,1266,1267,0,0,0,0,12973,13358,13358,13358,13358,13358,13358,13358,13359,0,0,0,0,0,0,0,0,0,
0,0,0,0,0,0,0,0,12974,0,0,0,0,0,0,0,13165,0,0,0,0,0,0,0,0,0,0,0,0,0,0,0,0,0,
0,0,0,0,0,0,0,0,13166,0,0,0,0,0,0,0,13165,0,0,0,0,0,0,0,0,0,0,0,0,0,0,0,0,0,
0,0,0,0,0,0,0,0,13166,0,0,0,0,0,12973,13358,13359,0,0,0,0,0,0,0,0,0,0,0,0,0,0,0,0,0,
0,0,0,0,0,0,0,0,13166,0,0,0,0,0,13165,0,0,0,0,0,0,0,0,0,0,0,0,0,0,0,0,0,0,0,
0,0,0,0,0,0,0,0,13166,0,0,0,0,0,13165,12975,1183,1238,1238,1238,1238,1238,1238,1238,1238,1239,0,0,0,0,0,0,0,0,
0,0,0,0,0,0,0,0,13358,0,0,0,0,0,13165,13167,1182,1291,1291,1291,1291,1291,1291,1291,1291,1210,0,5213,5216,5216,5216,5217,12975,0,
0,0,0,0,0,1183,1238,1238,1238,1239,0,0,0,0,13357,13359,1182,1291,1291,1291,1291,1291,1291,1291,1291,1210,0,5405,5406,5407,5408,5409,10674,0,
0,0,0,0,0,1182,1291,1291,1291,1210,0,0,0,0,0,0,1182,1291,1291,1291,1291,1291,1291,1291,1291,1210,0,5597,5598,5599,5600,5601,0,0,
0,0,0,0,0,1211,1266,1266,1266,1267,0,0,0,0,0,0,1182,1291,1291,1291,1291,1291,1291,1291,1291,1210,0,5405,5790,5791,5792,5409,0,0,
0,0,0,0,0,12973,12974,12975,0,0,0,0,0,0,0,0,1182,1291,1291,1291,1291,1291,1291,1291,1291,1210,0,5405,5982,5983,5984,5409,0,0,
0,0,0,0,0,13165,13166,13167,0,0,0,0,0,0,0,0,1182,1291,1291,1291,1291,1291,1291,1291,1291,1210,0,6173,6176,6176,6176,6177,0,0,
0,0,0,0,0,13165,13166,13167,0,0,0,0,0,0,0,0,1211,1266,1266,1266,1266,1266,1266,1266,1266,1267,0,0,0,12973,12974,12975,0,0,
0,0,0,0,0,13357,13358,13359,0,0,0,0,0,0,0,0,0,0,0,0,0,12973,12974,12975,0,0,0,0,0,13165,13166,13167,0,0,
0,0,0,0,0,1294,1295,1296,0,0,0,0,0,0,0,0,0,0,0,0,0,13357,13358,13358,13358,13358,13358,13358,13358,13358,13358,13359,0,0
</data>
 </layer>
 <layer id="2" name="Portal Visuals" width="34" height="40">
  <data encoding="csv">
0,0,0,0,0,0,0,0,0,0,0,0,0,0,0,0,0,0,0,0,0,0,0,0,0,0,0,0,0,0,0,0,0,0,
0,0,0,0,0,0,0,0,0,0,0,0,0,0,0,0,0,0,0,0,0,0,0,0,0,0,0,0,0,0,0,0,0,0,
0,0,0,0,0,0,0,0,0,0,0,0,0,0,0,0,0,0,0,0,0,0,0,0,0,0,0,0,0,0,0,0,0,0,
0,0,0,0,0,0,0,0,0,0,0,0,0,0,0,0,0,0,0,0,0,0,0,0,0,0,0,0,0,0,0,0,0,0,
0,0,0,0,0,0,0,0,0,0,0,0,0,0,0,0,13605,0,0,0,0,0,0,0,0,0,0,0,0,0,0,0,0,0,
0,0,0,0,0,0,0,0,0,0,0,0,0,0,0,0,0,0,0,0,0,0,0,0,0,0,0,0,0,0,0,0,0,0,
0,0,0,0,0,0,0,0,0,0,0,0,0,0,0,0,0,0,0,0,0,0,0,0,0,0,0,0,0,0,0,0,0,0,
0,0,0,0,0,0,0,0,0,0,0,0,0,0,0,0,0,0,0,0,0,0,0,0,0,0,0,0,0,0,0,0,0,0,
0,0,0,0,0,0,0,0,0,0,0,0,0,0,0,0,0,13605,0,0,0,0,0,0,0,0,0,0,0,0,0,0,0,0,
0,0,0,0,0,0,0,0,0,0,0,0,0,0,0,0,0,0,0,0,0,0,0,0,0,0,0,0,0,0,0,0,0,0,
0,0,0,0,0,0,0,0,0,0,0,0,0,0,0,0,0,0,0,0,0,0,0,0,0,0,0,0,0,0,0,0,0,0,
0,0,0,0,0,0,13608,0,0,0,0,0,0,0,0,0,0,0,0,0,0,0,0,0,0,0,0,0,0,0,0,0,0,0,
0,0,0,13605,0,13608,13608,0,0,0,0,0,0,0,0,0,0,0,0,0,0,0,0,0,0,0,0,0,0,0,0,0,0,0,
0,0,0,13608,13608,13608,0,0,0,0,0,0,0,0,0,0,0,0,0,0,0,0,0,0,0,0,0,0,0,0,0,0,0,0,
0,0,0,0,0,0,0,0,0,0,0,0,0,0,0,0,0,0,0,0,0,0,0,0,0,0,0,0,0,0,0,0,0,0,
0,0,0,0,13608,13608,13608,0,0,0,0,0,0,0,0,0,0,0,13608,13608,0,13608,13608,13608,0,0,13608,13608,0,0,0,0,0,0,
0,0,0,0,13605,0,13608,0,0,0,0,0,0,0,0,0,0,0,13608,13605,0,13605,0,13608,0,0,13608,13607,0,0,0,0,0,0,
0,0,0,0,0,0,0,0,0,0,0,0,0,0,0,0,0,0,13608,13608,0,0,0,13608,0,13608,13608,0,0,0,0,0,0,0,
0,0,0,0,0,0,0,0,0,0,0,0,0,0,0,0,0,0,0,0,0,13608,13606,13608,0,13608,0,0,0,0,0,0,0,0,
0,0,0,0,0,0,0,0,0,0,0,0,0,0,0,0,0,0,0,0,0,13608,13608,13608,0,13608,0,0,0,0,0,0,0,0,
0,0,0,0,0,0,0,0,0,0,0,0,0,0,0,0,0,0,13606,13608,13608,0,0,0,0,13608,0,0,0,0,0,0,0,0,
0,0,0,0,0,0,0,0,0,0,0,0,0,0,0,0,0,0,0,0,13608,13608,13608,13608,13608,13608,0,0,0,0,0,0,0,0,
0,0,0,0,0,0,0,0,0,0,0,0,0,0,0,0,0,0,0,0,0,0,0,13607,0,0,0,0,0,0,0,0,0,0,
0,0,0,0,0,0,0,0,0,0,0,0,0,0,0,0,0,0,0,0,0,0,0,0,0,0,0,0,0,0,0,0,0,0,
0,0,0,0,0,0,0,13605,0,0,0,13605,0,0,0,0,0,0,0,0,0,0,0,0,0,0,0,0,0,0,0,0,0,0,
0,0,0,0,0,0,0,0,0,0,0,0,0,0,0,0,0,0,0,0,0,0,0,0,0,0,0,0,0,0,0,0,0,0,
0,0,0,0,0,0,0,0,0,0,0,0,0,0,0,0,0,0,0,0,0,0,0,0,0,0,0,0,0,0,0,0,0,0,
0,0,0,0,0,0,0,0,0,0,0,0,0,0,0,0,0,0,0,0,0,0,0,0,0,0,0,0,0,0,0,0,0,0,
0,0,0,0,0,0,0,0,0,0,0,0,0,0,0,0,0,0,0,0,0,0,0,0,0,0,0,0,0,0,0,0,0,0,
0,0,0,0,0,0,0,0,0,0,0,0,0,0,0,0,0,0,0,0,0,0,0,0,0,0,0,0,0,0,0,0,0,0,
0,0,0,0,0,0,0,0,0,0,0,0,0,0,0,0,0,0,0,0,0,0,0,0,0,0,0,0,0,0,0,0,0,0,
0,0,0,0,0,0,0,0,0,0,0,0,0,0,0,0,0,13605,0,13605,0,0,0,0,0,13607,0,0,0,0,0,0,0,0,
0,0,0,0,0,0,0,13608,13608,0,0,0,0,0,0,0,0,0,0,0,0,0,0,0,0,0,0,0,0,0,0,0,0,0,
0,0,0,0,0,13605,13608,0,13608,13605,0,0,0,0,0,0,0,0,0,0,13606,0,0,0,0,0,0,0,0,0,0,0,0,0,
0,0,0,0,0,0,13608,0,0,0,0,0,0,0,0,0,0,0,0,0,0,0,0,0,0,0,0,0,0,0,0,0,0,0,
0,0,0,0,0,0,0,0,0,0,0,0,0,0,0,0,13606,0,0,0,0,0,0,0,0,0,0,0,0,0,0,0,0,0,
0,0,0,0,0,0,0,0,0,0,0,0,0,0,0,0,0,0,0,0,0,0,0,0,0,0,0,0,0,0,0,0,0,0,
0,0,0,0,0,0,0,0,0,0,0,0,0,0,0,0,0,0,0,0,0,13607,0,0,0,0,0,0,0,0,0,0,0,0,
0,0,0,0,0,0,0,0,0,0,0,0,0,0,0,0,0,0,0,0,0,0,0,0,0,0,0,0,0,0,0,0,0,0,
0,0,0,0,0,0,0,0,0,0,0,0,0,0,0,0,0,0,0,0,0,0,0,0,0,0,0,0,0,0,0,0,0,0
</data>
 </layer>
 <layer id="3" name="Obstacles" width="34" height="40">
  <properties>
   <property name="walkable" type="bool" value="false"/>
  </properties>
  <data encoding="csv">
9909,9910,9910,9910,9910,9910,9910,9910,9910,9910,9910,9910,9910,9910,9910,9911,9914,9914,9914,9914,9914,9914,9914,9914,9909,9910,9910,9910,9911,9914,9914,9914,9914,9914,
10101,10102,10102,10102,10102,10102,10102,10102,10102,10102,10102,10102,10102,10102,10102,10103,9914,9914,0,0,0,0,0,0,10101,10102,10102,10102,10103,9914,9914,9914,9914,9914,
10101,10102,10102,10102,10102,10102,10102,10102,10102,10102,10102,10102,10102,10102,10102,10103,9914,9914,0,0,0,9914,9914,0,10101,10102,10102,10102,10103,9914,9914,9914,9914,9914,
10101,10102,10102,10102,10102,10102,10102,10102,10102,10102,10102,10102,10102,10102,10102,10103,0,0,0,0,0,0,9914,0,10101,10102,10102,10102,10103,9914,9914,9914,9914,9914,
10293,10294,10294,10294,10294,10294,10294,10294,10294,10294,10294,10294,10294,10294,10294,10295,0,0,0,0,0,0,9914,0,10101,10102,10102,10102,10103,9914,9914,9914,9914,9914,
9909,9910,9910,9910,9910,9911,9914,0,0,0,0,0,9909,9910,9910,9911,0,0,0,0,0,0,9914,0,10101,10102,10102,10102,10103,9914,9914,9914,9914,9914,
10101,10102,10102,10102,10102,10103,9914,0,9914,9914,9914,0,10101,10102,10102,10103,0,0,0,0,0,0,9914,0,10101,10102,10102,10102,10103,9914,9914,9914,9914,9914,
10101,10102,10102,10102,10102,10103,9914,0,9914,9914,9914,0,10101,10102,10102,10103,0,0,0,0,0,0,9914,0,10101,10102,10102,10102,10103,9914,9914,9914,9914,9914,
10101,10102,10102,10102,10102,10103,0,0,0,9914,9914,0,10101,10102,10102,10103,0,0,0,0,0,0,9914,0,10101,10102,10102,10102,10103,9914,9914,9914,9914,9914,
10101,10102,10102,10102,10102,10103,0,0,0,9914,9914,0,10293,10294,10294,10295,9914,9914,0,0,0,9914,9914,0,10101,10102,10102,10102,10103,9914,9914,9914,9914,9914,
10293,10294,10294,10294,10294,10295,0,0,0,9914,9914,0,0,0,0,0,0,0,0,0,0,9914,9914,0,10101,10102,10102,10102,10103,9914,9914,9914,9914,9914,
9909,9910,9911,0,0,0,0,0,0,9914,9914,9914,9914,9914,9914,9914,9914,9914,9914,9914,9914,9914,9914,0,10101,10102,10102,10102,10103,9914,9914,9914,9914,9914,
10101,10102,10103,0,0,0,0,0,0,9914,9909,9910,9910,9910,9911,9914,9914,9914,9914,9914,9914,9914,9914,0,10101,10102,10102,10102,10103,9914,9914,9914,9914,9914,
10101,10102,10103,0,0,0,0,0,0,9914,10101,10102,10102,10102,10103,9914,0,0,0,0,0,0,0,0,10101,10102,10102,10102,10103,9914,9914,9914,9914,9914,
10101,10102,10103,0,0,0,0,0,0,9914,10101,10102,10102,10102,10103,9914,0,0,9914,9914,9914,9914,9914,9914,10293,10294,10294,10294,10295,9914,9914,9914,9914,9914,
10101,10102,10103,0,0,0,0,0,0,9914,10101,10102,10102,10102,10103,9914,0,0,0,0,0,0,0,0,0,0,0,0,9909,9910,9910,9911,9914,9914,
10101,10102,10103,0,0,0,0,0,0,9914,10101,10102,10102,10102,10103,9914,108,0,0,0,0,0,0,0,0,0,0,0,10101,10102,10102,10103,9914,9914,
10101,10102,10103,9909,9910,9911,0,9914,9914,9914,10101,10102,10102,10102,10103,9914,0,0,0,0,0,0,0,0,0,0,0,0,10101,10102,10102,10103,9914,9914,
10101,10102,10103,10101,10102,10103,0,0,0,0,10101,10102,10102,10102,10103,9909,9910,9911,0,0,0,0,0,0,0,0,0,0,10101,10102,10102,10103,9914,9914,
10101,10102,10103,10101,10102,10103,0,108,0,0,10101,10102,10102,10102,10103,10101,10102,10103,0,0,0,0,0,0,0,0,0,0,10101,10102,10102,10103,9914,9914,
10293,10294,10295,10293,10294,10295,9914,9914,9914,0,10293,10294,10294,10294,10295,10101,10102,10103,0,0,0,0,0,0,0,0,0,0,10101,10102,10102,10103,9914,9914,
9914,9914,9914,9914,9909,9910,9911,9914,9914,0,9914,9914,9909,9910,9911,10101,10102,10103,0,0,0,0,0,0,0,0,0,0,10101,10102,10102,10103,9914,9914,
9914,9914,9914,9914,10101,10102,10103,9914,9914,0,9914,9914,10101,10102,10103,10101,10102,10103,0,0,0,0,0,0,0,0,0,0,10101,10102,10102,10103,9914,9914,
9914,9914,9914,9914,10101,10102,10103,0,0,0,0,0,10101,10102,10103,10101,10102,10103,9914,9914,9914,9914,0,0,0,9914,9914,9914,10101,10102,10102,10103,9914,9914,
9914,9914,9914,9914,10101,10102,10103,0,0,0,0,0,10101,10102,10103,10293,10294,10295,9914,9914,9914,9914,0,0,0,9914,9914,9914,10101,10102,10102,10103,9914,9914,
9914,9914,9914,9914,10293,10294,10295,0,0,0,0,0,10293,10294,10295,9914,0,0,0,0,0,0,0,0,0,9914,9914,9914,10293,10294,10294,10295,9914,9914,
9914,9914,9914,9914,9914,9909,9910,9911,0,9914,9909,9910,9911,9914,9914,9914,0,9909,9910,9910,9910,9910,9910,9910,9910,9910,9910,9910,9910,9910,9910,9911,9914,9914,
9914,9914,9914,9914,9914,10101,10102,10103,0,9914,10101,10102,10103,9914,9914,9914,0,10101,10102,10102,10102,10102,10102,10102,10102,10102,10102,10102,10102,10102,10102,10103,9914,9914,
9914,9914,9914,9914,9914,10101,10102,10103,0,9914,10101,10102,10103,9914,0,0,0,10101,10102,10102,10102,10102,10102,10102,10102,10102,10102,10102,10102,10102,10102,10103,9914,9914,
9914,9914,9914,9914,9914,10101,10102,10103,0,9914,10101,10102,10103,9914,0,9914,9914,10293,10294,10294,10294,10294,10294,10294,10294,10294,10294,10294,10294,10294,10294,10295,9914,9914,
9914,9914,9909,9910,9911,10101,10102,10103,0,9914,10101,10102,10103,9914,0,0,0,0,0,0,0,0,0,0,0,0,9914,9914,9914,9914,9914,9914,9914,9914,
9914,9914,10101,10102,10103,10293,10294,10295,0,9914,10101,10102,10103,9914,0,0,0,0,0,0,0,0,0,0,0,0,9914,0,0,0,0,0,108,9914,
9914,9914,10101,10102,10103,0,0,0,0,0,10101,10102,10103,9914,0,0,0,0,0,0,0,0,0,0,0,0,9914,0,0,13612,0,0,0,9914,
9914,9914,10101,10102,10103,0,0,0,0,0,10101,10102,10103,9914,9914,9914,0,0,0,0,0,0,0,0,0,0,9914,0,0,0,0,0,9914,9914,
9914,9914,10101,10102,10103,0,0,0,0,0,10293,10294,10295,9914,9914,9914,0,0,0,0,0,0,0,0,0,0,9914,0,0,0,0,0,9914,9914,
9914,9914,10101,10102,10103,0,0,0,9909,9910,9910,9910,9910,9910,9910,9911,0,0,0,0,0,0,0,0,0,0,9914,0,0,0,0,0,9914,9914,
9914,9914,10101,10102,10103,108,0,0,10101,10102,10102,10102,10102,10102,10102,10103,0,0,0,0,0,0,0,0,0,0,9914,0,0,0,0,0,9914,9914,
9914,9914,10101,10102,10103,0,0,0,10101,10102,10102,10102,10102,10102,10102,10103,0,0,0,0,0,0,0,0,0,0,9914,9914,9914,0,0,0,9914,9914,
9914,9914,10101,10102,10103,0,0,0,10101,10102,10102,10102,10102,10102,10102,10103,9914,9914,9914,9914,9914,0,0,0,9914,9914,9914,9914,9914,0,0,0,9914,9914,
9914,9914,10293,10294,10295,0,0,0,10293,10294,10294,10294,10294,10294,10294,10295,9914,9914,9914,9914,9914,0,0,0,0,0,0,0,0,0,0,0,9914,9914
</data>
 </layer>
 <objectgroup color="#ff0000" id="4" name="Actables">
  <object id="1" x="80" y="576" width="16" height="16">
   <properties>
    <property name="message" value="Beware of quicksand. Follow your heart."/>
    <property name="name" value="Sign"/>
   </properties>
  </object>
  <object id="26" x="112" y="304" width="16" height="16">
   <properties>
    <property name="message" value="Beware of quicksand. Stay on the path."/>
    <property name="name" value="Sign"/>
   </properties>
  </object>
  <object id="27" x="256" y="256" width="16" height="16">
   <properties>
    <property name="message" value="Beware of quicksand. Stay on the path."/>
    <property name="name" value="Sign"/>
   </properties>
  </object>
  <object id="28" x="512" y="496" width="16" height="16">
   <properties>
    <property name="message" value="Beware of quicksand. Stay on the path."/>
    <property name="name" value="Sign"/>
   </properties>
  </object>
  <object id="33" x="464" y="512" width="16" height="16">
   <properties>
    <property name="trainerId" value="gargis"/>
   </properties>
  </object>
 </objectgroup>
 <objectgroup color="#aa00ff" id="5" name="Wild">
  <object id="94" x="288" y="16" width="96" height="16">
   <properties>
    <property name="wild" type="bool" value="true"/>
   </properties>
  </object>
  <object id="95" x="368" y="32" width="16" height="192">
   <properties>
    <property name="wild" type="bool" value="true"/>
   </properties>
  </object>
  <object id="96" x="256" y="208" width="112" height="16">
   <properties>
    <property name="wild" type="bool" value="true"/>
   </properties>
  </object>
  <object id="97" x="96" y="288" width="64" height="64">
   <properties>
    <property name="wild" type="bool" value="true"/>
   </properties>
  </object>
  <object id="98" x="96" y="144" width="208" height="32">
   <properties>
    <property name="wild" type="bool" value="true"/>
   </properties>
  </object>
  <object id="99" x="96" y="80" width="96" height="64">
   <properties>
    <property name="wild" type="bool" value="true"/>
   </properties>
  </object>
  <object id="100" x="128" y="432" width="16" height="80">
   <properties>
    <property name="wild" type="bool" value="true"/>
   </properties>
  </object>
  <object id="101" x="224" y="384" width="176" height="80">
   <properties>
    <property name="wild" type="bool" value="true"/>
   </properties>
  </object>
 </objectgroup>
 <objectgroup color="#ff00ff" id="6" name="Spawns">
  <object id="85" x="96" y="608" width="16" height="16">
   <properties>
    <property name="spawn" value="gym2-entrance"/>
   </properties>
  </object>
  <object id="86" x="96" y="560" width="16" height="16">
   <properties>
    <property name="spawn" value="gym2-trial1-1"/>
   </properties>
  </object>
  <object id="88" x="128" y="416" width="16" height="16">
   <properties>
    <property name="spawn" value="gym2-trial1-2"/>
   </properties>
  </object>
  <object id="89" x="96" y="272" width="16" height="16">
   <properties>
    <property name="spawn" value="gym2-trial2-1"/>
   </properties>
  </object>
  <object id="90" x="304" y="144" width="16" height="16">
   <properties>
    <property name="spawn" value="gym2-trial2-2"/>
   </properties>
  </object>
  <object id="91" x="272" y="256" width="16" height="16">
   <properties>
    <property name="spawn" value="gym2-trial3-1"/>
   </properties>
  </object>
  <object id="92" x="240" y="496" width="16" height="16">
   <properties>
    <property name="spawn" value="gym2-trial3-2"/>
   </properties>
  </object>
 </objectgroup>
 <objectgroup color="#00ff00" id="7" name="Warp">
  <object id="29" x="96" y="304" width="16" height="16">
   <properties>
    <property name="map" value="town"/>
    <property name="spawn" value="gym2-exit"/>
   </properties>
  </object>
  <object id="31" x="256" y="272" width="16" height="16">
   <properties>
    <property name="map" value="town"/>
    <property name="spawn" value="gym2-exit"/>
   </properties>
  </object>
  <object id="32" x="512" y="512" width="16" height="16">
   <properties>
    <property name="map" value="town"/>
    <property name="spawn" value="gym2-exit"/>
   </properties>
  </object>
  <object id="34" x="80" y="544" width="16" height="16">
   <properties>
    <property name="map" value="gym2"/>
    <property name="spawn" value="gym2-trial1-1"/>
   </properties>
  </object>
  <object id="37" x="80" y="512" width="32" height="16">
   <properties>
    <property name="map" value="gym2"/>
    <property name="spawn" value="gym2-trial1-1"/>
   </properties>
  </object>
  <object id="38" x="112" y="544" width="48" height="16">
   <properties>
    <property name="map" value="gym2"/>
    <property name="spawn" value="gym2-trial1-1"/>
   </properties>
  </object>
  <object id="39" x="144" y="512" width="16" height="16">
   <properties>
    <property name="map" value="gym2"/>
    <property name="spawn" value="gym2-trial1-1"/>
   </properties>
  </object>
  <object id="40" x="112" y="528" width="16" height="16">
   <properties>
    <property name="map" value="gym2"/>
    <property name="spawn" value="gym2-trial1-1"/>
   </properties>
  </object>
  <object id="41" x="112" y="400" width="16" height="16">
   <properties>
    <property name="map" value="gym2"/>
    <property name="spawn" value="gym2-trial1-2"/>
   </properties>
  </object>
  <object id="42" x="112" y="368" width="32" height="16">
   <properties>
    <property name="map" value="gym2"/>
    <property name="spawn" value="gym2-trial1-2"/>
   </properties>
  </object>
  <object id="43" x="144" y="400" width="48" height="16">
   <properties>
    <property name="map" value="gym2"/>
    <property name="spawn" value="gym2-trial1-2"/>
   </properties>
  </object>
  <object id="44" x="176" y="368" width="16" height="16">
   <properties>
    <property name="map" value="gym2"/>
    <property name="spawn" value="gym2-trial1-2"/>
   </properties>
  </object>
  <object id="45" x="144" y="384" width="16" height="16">
   <properties>
    <property name="map" value="gym2"/>
    <property name="spawn" value="gym2-trial1-2"/>
   </properties>
  </object>
  <object id="46" x="48" y="224" width="16" height="48">
   <properties>
    <property name="map" value="gym2"/>
    <property name="spawn" value="gym2-trial2-1"/>
   </properties>
  </object>
  <object id="47" x="64" y="224" width="48" height="16">
   <properties>
    <property name="map" value="gym2"/>
    <property name="spawn" value="gym2-trial2-1"/>
   </properties>
  </object>
  <object id="48" x="112" y="176" width="32" height="96">
   <properties>
    <property name="map" value="gym2"/>
    <property name="spawn" value="gym2-trial2-1"/>
   </properties>
  </object>
  <object id="49" x="48" y="176" width="48" height="16">
   <properties>
    <property name="map" value="gym2"/>
    <property name="spawn" value="gym2-trial2-1"/>
   </properties>
  </object>
  <object id="50" x="64" y="192" width="16" height="16">
   <properties>
    <property name="map" value="gym2"/>
    <property name="spawn" value="gym2-trial2-1"/>
   </properties>
  </object>
  <object id="51" x="96" y="208" width="16" height="16">
   <properties>
    <property name="map" value="gym2"/>
    <property name="spawn" value="gym2-trial2-1"/>
   </properties>
  </object>
  <object id="52" x="80" y="256" width="16" height="16">
   <properties>
    <property name="map" value="gym2"/>
    <property name="spawn" value="gym2-trial2-1"/>
   </properties>
  </object>
  <object id="53" x="256" y="96" width="16" height="48">
   <properties>
    <property name="map" value="gym2"/>
    <property name="spawn" value="gym2-trial2-2"/>
   </properties>
  </object>
  <object id="54" x="272" y="96" width="48" height="16">
   <properties>
    <property name="map" value="gym2"/>
    <property name="spawn" value="gym2-trial2-2"/>
   </properties>
  </object>
  <object id="55" x="320" y="48" width="32" height="96">
   <properties>
    <property name="map" value="gym2"/>
    <property name="spawn" value="gym2-trial2-2"/>
   </properties>
  </object>
  <object id="56" x="256" y="48" width="48" height="16">
   <properties>
    <property name="map" value="gym2"/>
    <property name="spawn" value="gym2-trial2-2"/>
   </properties>
  </object>
  <object id="57" x="272" y="64" width="16" height="16">
   <properties>
    <property name="map" value="gym2"/>
    <property name="spawn" value="gym2-trial2-2"/>
   </properties>
  </object>
  <object id="58" x="304" y="80" width="16" height="16">
   <properties>
    <property name="map" value="gym2"/>
    <property name="spawn" value="gym2-trial2-2"/>
   </properties>
  </object>
  <object id="59" x="288" y="128" width="16" height="16">
   <properties>
    <property name="map" value="gym2"/>
    <property name="spawn" value="gym2-trial2-2"/>
   </properties>
  </object>
  <object id="60" x="288" y="288" width="48" height="32">
   <properties>
    <property name="map" value="gym2"/>
    <property name="spawn" value="gym2-trial3-1"/>
   </properties>
  </object>
  <object id="62" x="288" y="336" width="32" height="32">
   <properties>
    <property name="map" value="gym2"/>
    <property name="spawn" value="gym2-trial3-1"/>
   </properties>
  </object>
  <object id="63" x="320" y="352" width="48" height="16">
   <properties>
    <property name="map" value="gym2"/>
    <property name="spawn" value="gym2-trial3-1"/>
   </properties>
  </object>
  <object id="64" x="384" y="352" width="64" height="16">
   <properties>
    <property name="map" value="gym2"/>
    <property name="spawn" value="gym2-trial3-1"/>
   </properties>
  </object>
  <object id="65" x="416" y="288" width="32" height="64">
   <properties>
    <property name="map" value="gym2"/>
    <property name="spawn" value="gym2-trial3-1"/>
   </properties>
  </object>
  <object id="66" x="432" y="272" width="16" height="16">
   <properties>
    <property name="map" value="gym2"/>
    <property name="spawn" value="gym2-trial3-1"/>
   </properties>
  </object>
  <object id="67" x="384" y="240" width="32" height="32">
   <properties>
    <property name="map" value="gym2"/>
    <property name="spawn" value="gym2-trial3-1"/>
   </properties>
  </object>
  <object id="68" x="384" y="272" width="16" height="64">
   <properties>
    <property name="map" value="gym2"/>
    <property name="spawn" value="gym2-trial3-1"/>
   </properties>
  </object>
  <object id="69" x="336" y="320" width="48" height="16">
   <properties>
    <property name="map" value="gym2"/>
    <property name="spawn" value="gym2-trial3-1"/>
   </properties>
  </object>
  <object id="70" x="320" y="240" width="16" height="32">
   <properties>
    <property name="map" value="gym2"/>
    <property name="spawn" value="gym2-trial3-1"/>
   </properties>
  </object>
  <object id="71" x="320" y="272" width="48" height="16">
   <properties>
    <property name="map" value="gym2"/>
    <property name="spawn" value="gym2-trial3-1"/>
   </properties>
  </object>
  <object id="72" x="352" y="256" width="16" height="16">
   <properties>
    <property name="map" value="gym2"/>
    <property name="spawn" value="gym2-trial3-1"/>
   </properties>
  </object>
  <object id="73" x="256" y="528" width="48" height="32">
   <properties>
    <property name="map" value="gym2"/>
    <property name="spawn" value="gym2-trial3-2"/>
   </properties>
  </object>
  <object id="74" x="256" y="576" width="32" height="32">
   <properties>
    <property name="map" value="gym2"/>
    <property name="spawn" value="gym2-trial3-2"/>
   </properties>
  </object>
  <object id="75" x="288" y="592" width="48" height="16">
   <properties>
    <property name="map" value="gym2"/>
    <property name="spawn" value="gym2-trial3-2"/>
   </properties>
  </object>
  <object id="76" x="352" y="592" width="64" height="16">
   <properties>
    <property name="map" value="gym2"/>
    <property name="spawn" value="gym2-trial3-2"/>
   </properties>
  </object>
  <object id="77" x="384" y="528" width="32" height="64">
   <properties>
    <property name="map" value="gym2"/>
    <property name="spawn" value="gym2-trial3-2"/>
   </properties>
  </object>
  <object id="78" x="400" y="512" width="16" height="16">
   <properties>
    <property name="map" value="gym2"/>
    <property name="spawn" value="gym2-trial3-2"/>
   </properties>
  </object>
  <object id="79" x="352" y="480" width="32" height="32">
   <properties>
    <property name="map" value="gym2"/>
    <property name="spawn" value="gym2-trial3-2"/>
   </properties>
  </object>
  <object id="80" x="352" y="512" width="16" height="64">
   <properties>
    <property name="map" value="gym2"/>
    <property name="spawn" value="gym2-trial3-2"/>
   </properties>
  </object>
  <object id="81" x="304" y="560" width="48" height="16">
   <properties>
    <property name="map" value="gym2"/>
    <property name="spawn" value="gym2-trial3-2"/>
   </properties>
  </object>
  <object id="82" x="288" y="480" width="16" height="32">
   <properties>
    <property name="map" value="gym2"/>
    <property name="spawn" value="gym2-trial3-2"/>
   </properties>
  </object>
  <object id="83" x="288" y="512" width="48" height="16">
   <properties>
    <property name="map" value="gym2"/>
    <property name="spawn" value="gym2-trial3-2"/>
   </properties>
  </object>
  <object id="84" x="320" y="496" width="16" height="16">
   <properties>
    <property name="map" value="gym2"/>
    <property name="spawn" value="gym2-trial3-2"/>
   </properties>
  </object>
  <object id="93" x="96" y="624" width="16" height="16">
   <properties>
    <property name="map" value="town"/>
    <property name="spawn" value="gym2-exit"/>
   </properties>
  </object>
 </objectgroup>
 <objectgroup color="#ffff00" id="8" name="Portals">
  <properties>
   <property name="directionalExit" type="bool" value="false"/>
  </properties>
  <object id="3" x="80" y="528" width="16" height="16">
   <properties>
    <property name="portal" type="int" value="1"/>
   </properties>
  </object>
  <object id="4" x="144" y="528" width="16" height="16">
   <properties>
    <property name="portal" type="int" value="1"/>
   </properties>
  </object>
  <object id="5" x="112" y="384" width="16" height="16">
   <properties>
    <property name="portal" type="int" value="2"/>
   </properties>
  </object>
  <object id="7" x="176" y="384" width="16" height="16">
   <properties>
    <property name="portal" type="int" value="2"/>
   </properties>
  </object>
  <object id="8" x="48" y="192" width="16" height="16">
   <properties>
    <property name="portal" type="int" value="3"/>
   </properties>
  </object>
  <object id="9" x="64" y="256" width="16" height="16">
   <properties>
    <property name="portal" type="int" value="3"/>
   </properties>
  </object>
  <object id="11" x="272" y="128" width="16" height="16">
   <properties>
    <property name="portal" type="int" value="4"/>
   </properties>
  </object>
  <object id="12" x="256" y="64" width="16" height="16">
   <properties>
    <property name="portal" type="int" value="4"/>
   </properties>
  </object>
  <object id="13" x="304" y="256" width="16" height="16">
   <properties>
    <property name="portal" type="int" value="5"/>
   </properties>
  </object>
  <object id="14" x="336" y="256" width="16" height="16">
   <properties>
    <property name="portal" type="int" value="5"/>
   </properties>
  </object>
  <object id="15" x="288" y="320" width="16" height="16">
   <properties>
    <property name="portal" type="int" value="6"/>
   </properties>
  </object>
  <object id="16" x="352" y="288" width="16" height="16">
   <properties>
    <property name="portal" type="int" value="6"/>
   </properties>
  </object>
  <object id="17" x="368" y="352" width="16" height="16">
   <properties>
    <property name="portal" type="int" value="7"/>
   </properties>
  </object>
  <object id="18" x="432" y="256" width="16" height="16">
   <properties>
    <property name="portal" type="int" value="7"/>
   </properties>
  </object>
  <object id="19" x="272" y="496" width="16" height="16">
   <properties>
    <property name="portal" type="int" value="8"/>
   </properties>
  </object>
  <object id="20" x="304" y="496" width="16" height="16">
   <properties>
    <property name="portal" type="int" value="8"/>
   </properties>
  </object>
  <object id="21" x="256" y="560" width="16" height="16">
   <properties>
    <property name="portal" type="int" value="9"/>
   </properties>
  </object>
  <object id="23" x="320" y="528" width="16" height="16">
   <properties>
    <property name="portal" type="int" value="9"/>
   </properties>
  </object>
  <object id="24" x="336" y="592" width="16" height="16">
   <properties>
    <property name="portal" type="int" value="10"/>
   </properties>
  </object>
  <object id="25" x="400" y="496" width="16" height="16">
   <properties>
    <property name="portal" type="int" value="10"/>
   </properties>
  </object>
 </objectgroup>
</map>
