<?xml version="1.0" encoding="UTF-8"?>
<map version="1.10" tiledversion="1.12.2" orientation="orthogonal" renderorder="right-down" width="38" height="36" tilewidth="16" tileheight="16" infinite="0" nextlayerid="8" nextobjectid="123">
 <tileset firstgid="1" source="pokemon.tsx"/>
 <tileset firstgid="1317" source="PortalTileset.tsx"/>
 <tileset firstgid="1321" source="indoortileset.tsx"/>
 <tileset firstgid="13609" source="npcs-compact-16.tsx"/>
 <layer id="1" name="Floor" width="38" height="36">
  <data encoding="csv">
0,0,0,0,0,0,0,0,0,0,0,0,0,0,0,0,0,0,0,0,0,0,0,0,0,0,0,0,0,0,0,0,0,0,0,0,0,0,
0,0,0,0,0,0,0,0,0,0,0,0,0,0,0,0,0,0,0,0,0,0,0,0,0,0,0,0,0,0,0,0,0,0,0,0,0,0,
0,0,0,0,0,0,0,0,0,0,0,0,0,0,0,0,0,0,0,0,0,0,0,0,0,0,0,0,0,0,0,0,0,0,0,0,0,0,
0,0,0,0,0,0,0,0,0,0,0,0,0,0,0,0,0,0,0,0,0,0,0,0,0,0,0,0,0,0,0,0,0,0,0,0,0,0,
0,0,0,0,0,0,0,0,0,0,0,0,0,0,0,0,0,0,0,0,0,0,0,0,0,0,0,0,0,0,0,0,0,0,0,0,0,0,
0,0,0,0,0,0,0,0,0,0,0,0,0,0,0,0,0,0,0,0,0,0,0,0,0,0,0,0,0,0,0,0,0,0,0,0,0,0,
0,0,0,0,0,0,0,0,0,0,0,0,0,0,0,0,0,0,0,0,0,0,0,0,0,0,0,0,0,0,0,0,0,0,0,0,0,0,
0,0,0,0,0,0,0,0,0,0,0,0,0,0,0,0,0,0,0,0,0,0,0,0,0,0,0,0,0,0,0,0,0,0,0,0,0,0,
0,0,0,0,0,742,743,743,743,743,743,743,743,744,0,0,742,743,743,743,743,743,743,743,744,0,0,0,0,0,0,0,0,0,0,0,0,0,
0,0,0,0,0,770,771,771,771,771,771,771,771,772,0,0,770,771,771,771,771,771,771,771,772,0,0,0,0,0,0,0,0,0,0,0,0,0,
0,0,0,0,0,770,771,771,771,771,771,771,771,772,0,0,770,771,771,771,771,771,771,771,772,0,0,0,0,0,0,0,0,0,0,0,0,0,
0,0,0,0,0,770,771,771,771,771,771,771,771,772,0,0,770,771,771,771,771,771,771,771,772,0,0,0,0,0,0,0,0,0,0,0,0,0,
0,0,0,0,0,770,771,771,771,771,771,771,771,772,0,0,770,771,771,771,771,771,771,771,772,0,0,0,0,0,0,0,0,0,0,0,0,0,
0,0,0,0,0,798,799,799,799,799,799,799,799,800,0,0,798,799,799,799,799,799,799,799,800,0,0,9281,9282,9283,9284,9285,9286,9287,9288,0,0,0,
0,0,0,0,0,0,0,0,0,0,0,0,0,0,0,0,0,0,0,0,0,0,0,0,0,0,0,9473,9474,9475,9476,9477,9478,9479,9480,767,0,0,
0,0,0,0,0,0,0,0,0,0,0,0,0,0,0,0,0,0,0,0,0,0,0,0,0,0,0,9665,9666,9667,9668,9669,9670,9671,9672,795,0,0,
0,0,0,0,0,742,743,743,743,743,743,743,743,744,0,0,742,743,743,743,743,743,743,743,744,0,0,9857,9858,9859,9860,9861,9862,9863,9864,0,0,0,
0,0,0,0,0,770,771,771,771,771,771,771,771,772,0,0,770,771,771,771,771,771,771,771,772,0,0,10049,10050,10051,10052,10053,10054,10055,10056,0,0,0,
0,0,0,0,0,770,771,771,771,771,771,771,771,772,0,0,770,771,771,771,771,771,771,771,772,0,0,0,0,0,0,0,0,0,0,0,0,0,
0,0,0,0,0,770,771,771,771,771,771,771,771,772,0,0,770,771,771,771,771,771,771,771,772,0,0,0,0,0,0,0,0,0,0,0,0,0,
0,0,0,0,0,770,771,771,771,771,771,771,771,772,0,0,770,771,771,771,771,771,771,771,772,0,0,742,742,743,743,743,743,743,744,744,0,0,
0,0,0,0,0,798,799,799,799,799,799,799,799,800,0,0,798,799,799,799,799,799,799,799,800,0,0,770,770,771,771,771,771,771,772,772,0,0,
0,0,0,0,0,0,0,0,0,0,0,0,0,0,0,0,0,0,0,0,0,0,0,0,0,0,0,770,770,771,771,771,771,771,772,772,0,0,
0,0,0,0,0,0,0,0,0,0,0,0,0,0,0,0,0,0,0,0,0,0,0,0,0,0,0,770,770,771,771,771,771,771,772,772,0,0,
0,0,0,0,0,742,743,743,743,743,743,743,743,744,0,0,742,743,743,743,743,743,743,743,744,0,0,770,770,771,771,771,771,771,772,772,0,0,
0,0,0,0,0,770,771,771,771,771,771,771,771,772,0,0,770,771,771,771,771,771,771,771,772,0,0,798,798,799,799,799,799,799,800,800,0,0,
0,0,0,0,0,770,771,771,771,771,771,771,771,772,0,0,770,771,771,771,771,771,771,771,772,0,0,0,0,0,0,0,0,0,0,0,0,0,
0,0,0,0,0,770,771,771,771,771,771,771,771,772,0,0,770,771,771,771,771,771,771,771,772,0,0,0,0,0,0,0,0,0,0,0,0,0,
0,0,0,0,0,770,771,771,771,771,771,771,771,772,0,0,770,771,771,771,771,771,771,771,772,0,0,0,0,0,0,0,0,0,0,0,0,0,
0,0,0,0,0,798,799,799,799,799,799,799,799,800,0,0,798,799,799,799,799,799,799,799,800,0,0,0,0,0,0,0,0,0,0,0,0,0,
0,0,0,0,0,0,0,0,742,743,744,0,0,0,0,0,0,0,0,0,0,0,0,0,0,0,0,0,0,0,0,0,0,0,0,0,0,0,
0,0,0,0,0,0,0,0,770,771,772,0,0,0,0,0,0,0,0,0,0,0,0,0,0,0,0,0,0,0,0,0,0,0,0,0,0,0,
0,0,0,0,0,0,0,0,770,771,772,0,0,0,0,0,0,0,0,0,0,0,0,0,0,0,0,0,0,0,0,0,0,0,0,0,0,0,
0,0,0,0,0,0,0,0,770,771,772,0,0,0,0,0,0,0,0,0,0,0,0,0,0,0,0,0,0,0,0,0,0,0,0,0,0,0,
0,0,0,0,0,0,0,0,770,771,772,0,0,0,0,0,0,0,0,0,0,0,0,0,0,0,0,0,0,0,0,0,0,0,0,0,0,0,
0,0,0,0,0,0,0,0,798,1261,800,0,0,0,0,0,0,0,0,0,0,0,0,0,0,0,0,0,0,0,0,0,0,0,0,0,0,0
</data>
 </layer>
 <layer id="2" name="Portal Visuals" width="38" height="36">
  <data encoding="csv">
0,0,0,0,0,0,0,0,0,0,0,0,0,0,0,0,0,0,0,0,0,0,0,0,0,0,0,0,0,0,0,0,0,0,0,0,0,0,
0,0,0,0,0,0,0,0,0,0,0,0,0,0,0,0,0,0,0,0,0,0,0,0,0,0,0,0,0,0,0,0,0,0,0,0,0,0,
0,0,0,0,0,0,0,0,0,0,0,0,0,0,0,0,0,0,0,0,0,0,0,0,0,0,0,0,0,0,0,0,0,0,0,0,0,0,
0,0,0,0,0,0,0,0,0,0,0,0,0,0,0,0,0,0,0,0,0,0,0,0,0,0,0,0,0,0,0,0,0,0,0,0,0,0,
0,0,0,0,0,0,0,0,0,0,0,0,0,0,0,0,0,0,0,0,0,0,0,0,0,0,0,0,0,0,0,0,0,0,0,0,0,0,
0,0,0,0,0,0,0,0,0,0,0,0,0,0,0,0,0,0,0,0,0,0,0,0,0,0,0,0,0,0,0,0,0,0,0,0,0,0,
0,0,0,0,0,0,0,0,0,0,0,0,0,0,0,0,0,0,0,0,0,0,0,0,0,0,0,0,0,0,0,0,0,0,0,0,0,0,
0,0,0,0,0,0,0,0,0,0,0,0,0,0,0,0,0,0,0,0,0,0,0,0,0,0,0,0,0,0,0,0,0,0,0,0,0,0,
0,0,0,0,0,0,1317,0,1319,0,1318,0,1317,0,0,0,0,1319,0,1318,0,1317,0,1317,0,0,0,0,0,0,0,0,0,0,0,0,0,0,
0,0,0,0,0,0,0,0,0,0,0,0,0,0,0,0,0,0,0,0,0,0,0,0,0,0,0,0,0,0,0,0,0,0,0,0,0,0,
0,0,0,0,0,0,0,0,0,0,0,0,0,0,0,0,0,0,0,0,0,0,0,0,0,0,0,0,0,0,0,0,0,0,0,0,0,0,
0,0,0,0,0,1319,0,0,0,0,0,0,0,1317,0,0,1317,0,0,0,0,0,0,0,1319,0,0,0,0,0,0,0,0,0,0,0,0,0,
0,0,0,0,0,0,0,0,0,0,0,0,0,0,0,0,0,0,0,0,0,0,0,0,0,0,0,0,0,0,0,0,0,0,0,0,0,0,
0,0,0,0,0,0,0,0,0,0,0,0,0,0,0,0,1317,0,0,0,0,0,0,0,0,0,0,0,0,0,0,0,0,0,0,0,0,0,
0,0,0,0,0,0,0,0,0,0,0,0,0,0,0,0,0,0,0,0,0,0,0,0,0,0,0,0,0,0,0,0,0,0,0,0,0,0,
0,0,0,0,0,0,0,0,0,0,0,0,0,0,0,0,0,0,0,0,0,0,0,0,0,0,0,0,0,0,0,0,0,0,0,0,0,0,
0,0,0,0,0,0,1319,0,1317,0,1319,0,1318,0,0,0,0,1317,0,1317,0,1318,0,1317,0,0,0,0,0,0,0,0,0,0,0,0,0,0,
0,0,0,0,0,0,0,0,0,0,0,0,0,0,0,0,0,0,0,0,0,0,0,0,0,0,0,0,0,0,0,0,0,0,0,0,0,0,
0,0,0,0,0,0,0,0,0,0,0,0,0,0,0,0,0,0,0,0,0,0,0,0,0,0,0,0,0,0,0,0,0,0,0,0,0,0,
0,0,0,0,0,1317,0,0,0,0,0,0,0,0,0,0,1318,0,0,0,0,0,0,0,1317,0,0,0,0,0,0,0,0,0,0,0,0,0,
0,0,0,0,0,0,0,0,0,0,0,0,0,0,0,0,0,0,0,0,0,0,0,0,0,0,0,0,0,0,0,0,0,0,0,0,0,0,
0,0,0,0,0,0,0,0,0,0,0,0,0,0,0,0,1317,0,0,0,0,0,0,0,1317,0,0,0,0,0,0,0,0,0,0,0,0,0,
0,0,0,0,0,0,0,0,0,0,0,0,0,0,0,0,0,0,0,0,0,0,0,0,0,0,0,0,0,0,0,0,0,0,0,0,0,0,
0,0,0,0,0,0,0,0,0,0,0,0,0,0,0,0,0,0,0,0,0,0,0,0,0,0,0,0,0,0,0,0,0,0,0,0,0,0,
0,0,0,0,0,0,1317,0,1317,0,1317,0,1317,0,0,0,1317,0,1318,0,1317,0,1318,0,1317,0,0,0,0,0,0,0,0,0,0,0,0,0,
0,0,0,0,0,0,0,0,0,0,0,0,0,0,0,0,0,0,0,0,0,0,0,0,0,0,0,0,0,0,0,0,0,0,0,0,0,0,
0,0,0,0,0,0,0,0,0,0,0,0,0,0,0,0,0,0,0,0,0,0,0,0,0,0,0,0,0,0,0,0,0,0,0,0,0,0,
0,0,0,0,0,0,0,0,0,0,0,0,0,0,0,0,1318,0,0,0,0,0,0,0,1318,0,0,0,0,0,0,0,0,0,0,0,0,0,
0,0,0,0,0,0,0,0,0,0,0,0,0,0,0,0,0,0,0,0,0,0,0,0,0,0,0,0,0,0,0,0,0,0,0,0,0,0,
0,0,0,0,0,0,0,0,0,0,0,0,0,0,0,0,1317,0,0,0,0,0,0,0,1317,0,0,0,0,0,0,0,0,0,0,0,0,0,
0,0,0,0,0,0,0,0,0,0,0,0,0,0,0,0,0,0,0,0,0,0,0,0,0,0,0,0,0,0,0,0,0,0,0,0,0,0,
0,0,0,0,0,0,0,0,0,0,0,0,0,0,0,0,0,0,0,0,0,0,0,0,0,0,0,0,0,0,0,0,0,0,0,0,0,0,
0,0,0,0,0,0,0,0,0,0,0,0,0,0,0,0,0,0,0,0,0,0,0,0,0,0,0,0,0,0,0,0,0,0,0,0,0,0,
0,0,0,0,0,0,0,0,0,0,0,0,0,0,0,0,0,0,0,0,0,0,0,0,0,0,0,0,0,0,0,0,0,0,0,0,0,0,
0,0,0,0,0,0,0,0,0,0,0,0,0,0,0,0,0,0,0,0,0,0,0,0,0,0,0,0,0,0,0,0,0,0,0,0,0,0,
0,0,0,0,0,0,0,0,0,0,0,0,0,0,0,0,0,0,0,0,0,0,0,0,0,0,0,0,0,0,0,0,0,0,0,0,0,0
</data>
 </layer>
 <layer id="3" name="Obstacles" width="38" height="36">
  <data encoding="csv">
319,320,320,320,320,320,320,320,320,320,320,320,320,320,320,320,320,320,320,320,320,320,320,320,320,320,320,320,348,348,349,349,349,349,349,349,349,349,
347,348,348,348,348,348,348,348,348,349,349,349,349,348,348,348,348,348,348,348,348,348,348,348,348,349,348,348,348,348,348,348,349,349,349,349,349,349,
347,348,348,348,349,348,348,348,348,349,349,349,349,348,348,348,348,348,348,348,349,348,348,348,348,349,348,348,348,348,348,348,348,349,349,348,349,349,
347,348,348,348,349,348,348,348,348,349,349,349,348,348,348,348,348,348,348,349,349,348,348,348,349,349,348,348,348,349,349,348,348,349,349,348,349,349,
347,348,348,348,348,348,348,349,349,349,349,349,348,348,348,348,348,348,348,348,349,348,348,348,349,349,349,348,348,348,348,349,349,349,349,348,349,349,
347,348,348,348,348,348,348,348,349,349,348,348,348,348,348,349,348,348,348,348,348,348,348,348,349,348,349,348,348,348,348,348,348,349,349,348,349,349,
347,348,348,348,349,348,348,348,348,348,403,404,348,349,348,348,348,348,403,404,348,348,348,348,348,348,349,348,348,348,348,348,348,349,349,348,349,349,
347,348,348,348,349,376,376,376,376,376,431,432,376,376,348,348,376,376,431,432,376,376,376,376,376,347,348,348,348,349,348,348,349,349,349,348,349,349,
347,348,348,403,404,0,0,0,0,0,0,0,0,0,347,349,0,0,0,0,0,0,0,0,0,347,348,348,348,348,348,348,348,349,349,348,349,349,
347,348,348,431,432,0,108,0,108,0,108,0,108,0,347,349,0,108,0,108,0,108,0,108,0,347,348,348,348,348,348,348,348,349,349,348,349,349,
347,348,348,348,349,0,0,0,0,0,0,0,0,0,347,349,0,0,0,0,0,0,0,0,0,347,348,348,348,348,349,348,349,349,349,348,349,349,
347,348,348,348,349,0,108,0,0,0,0,0,108,0,347,349,0,108,0,0,0,0,0,108,0,347,348,348,348,348,349,348,348,349,349,348,349,349,
347,348,348,348,349,0,0,0,0,108,0,0,0,0,403,404,0,0,0,0,108,0,0,0,0,347,348,348,348,349,349,348,348,349,349,348,349,349,
347,348,348,348,349,0,0,0,0,0,0,0,0,0,431,432,0,108,0,0,0,0,0,0,0,347,348,0,0,0,0,0,0,0,0,348,349,349,
347,348,348,348,349,320,320,320,320,320,320,320,320,320,347,349,320,320,320,320,320,320,320,320,320,347,348,0,0,0,0,0,0,13610,0,0,349,349,
347,348,403,404,349,376,376,376,376,376,376,376,376,376,347,349,376,376,376,376,376,376,376,376,376,347,348,0,0,0,0,0,0,0,0,0,349,349,
347,348,431,432,349,0,0,0,0,0,0,0,0,0,347,349,0,0,0,0,0,0,0,0,0,347,348,0,0,0,0,0,0,0,0,348,349,349,
347,348,348,348,349,0,108,0,108,0,108,0,108,0,347,349,0,108,0,108,0,108,0,108,0,347,348,0,0,0,0,0,0,0,0,348,349,349,
347,348,348,348,349,0,0,0,0,0,0,0,0,0,347,349,0,0,0,0,0,0,0,0,0,347,348,348,348,349,349,348,348,348,348,348,349,349,
347,348,348,348,349,0,108,0,0,0,0,0,0,0,403,404,0,108,0,0,0,0,0,108,0,347,348,348,348,349,349,348,348,348,348,348,349,349,
347,348,348,348,349,0,0,0,0,108,0,0,0,0,431,432,0,0,0,0,108,0,0,0,0,347,348,348,0,0,0,0,0,0,0,348,349,349,
347,348,348,348,349,0,0,0,0,0,0,0,0,0,347,349,0,108,0,0,0,0,0,108,0,347,348,348,0,1317,0,1318,0,1319,0,348,349,349,
347,348,348,348,349,320,320,320,320,320,320,320,320,320,347,349,320,320,320,320,320,320,320,320,320,347,348,348,0,108,0,108,0,108,0,348,349,349,
347,348,348,348,349,376,376,376,376,376,376,376,376,376,347,349,376,376,376,376,376,376,376,376,376,347,348,348,0,0,0,0,0,0,0,348,349,349,
347,348,348,348,349,0,0,0,0,0,0,0,0,0,403,404,0,0,0,0,0,0,0,0,0,347,348,348,0,0,0,108,0,0,0,348,349,349,
347,348,348,348,349,0,108,0,108,0,108,0,108,0,431,432,108,0,108,0,108,0,108,0,108,347,348,348,0,0,0,0,0,0,0,348,349,349,
347,348,348,348,349,0,0,0,0,0,0,0,0,0,347,349,0,0,0,0,0,0,0,0,0,347,348,348,348,349,349,348,349,349,349,349,349,349,
347,348,348,348,349,0,0,0,0,0,0,0,0,0,347,349,0,108,0,0,0,0,0,108,0,347,348,348,348,349,349,348,349,349,349,348,349,349,
347,348,348,348,349,0,0,0,0,108,0,0,0,0,347,349,0,0,0,0,108,0,0,0,0,347,348,348,348,349,348,349,349,349,348,348,349,349,
347,348,348,348,349,0,0,0,0,0,0,0,0,0,347,349,0,108,0,0,0,0,0,108,0,347,348,348,348,349,348,349,349,349,348,348,349,349,
347,348,348,348,348,319,320,321,0,0,108,319,319,319,347,349,319,319,319,319,319,319,319,320,321,348,348,348,348,349,348,348,349,349,348,348,349,349,
347,348,348,348,348,348,320,321,0,0,0,347,348,348,348,348,347,347,347,347,348,348,348,348,321,348,348,348,348,349,348,348,348,348,348,348,348,349,
348,348,348,348,348,348,320,321,106,0,106,347,348,348,348,348,348,348,348,348,348,348,348,348,348,348,348,348,348,349,349,348,348,348,348,348,348,348,
348,348,348,348,348,348,320,321,0,0,0,347,348,348,348,348,348,348,348,348,348,348,348,348,348,348,348,348,348,348,348,348,348,348,348,348,348,348,
348,348,348,348,348,348,348,349,0,0,0,347,348,348,348,348,348,347,347,347,348,348,348,348,348,348,348,348,348,348,348,348,348,348,348,348,348,348,
375,376,376,376,376,375,376,377,0,0,0,375,376,376,376,376,376,376,376,376,376,376,376,376,348,348,348,348,376,376,348,348,348,348,348,348,348,348
</data>
 </layer>
 <objectgroup color="#ff0000" id="4" name="Actables">
  <object id="1" x="160" y="480" width="16" height="16">
   <properties>
    <property name="message" value="Cryptic islands ahead. Choose carefully!"/>
    <property name="name" value="Sign"/>
   </properties>
  </object>
  <object id="4" x="144" y="448" width="16" height="16">
   <properties>
    <property name="message" value="Is something different?"/>
    <property name="name" value="Sign"/>
   </properties>
  </object>
  <object id="5" x="96" y="400" width="16" height="16">
   <properties>
    <property name="message" value="Pick me!"/>
    <property name="name" value="Sign"/>
   </properties>
  </object>
  <object id="6" x="128" y="400" width="16" height="16">
   <properties>
    <property name="message" value="Pick me!"/>
    <property name="name" value="Sign"/>
   </properties>
  </object>
  <object id="7" x="160" y="400" width="16" height="16">
   <properties>
    <property name="message" value="Pick me."/>
    <property name="name" value="Sign"/>
   </properties>
  </object>
  <object id="8" x="192" y="400" width="16" height="16">
   <properties>
    <property name="message" value="Pick me!"/>
    <property name="name" value="Sign"/>
   </properties>
  </object>
  <object id="9" x="320" y="192" width="16" height="16">
   <properties>
    <property name="message" value="Hope you kept track of purple so far!"/>
    <property name="name" value="Sign"/>
   </properties>
  </object>
  <object id="10" x="272" y="208" width="16" height="16">
   <properties>
    <property name="message" value="2"/>
    <property name="name" value="Sign"/>
   </properties>
  </object>
  <object id="11" x="272" y="176" width="16" height="16">
   <properties>
    <property name="message" value="3"/>
    <property name="name" value="Sign"/>
   </properties>
  </object>
  <object id="12" x="272" y="144" width="16" height="16">
   <properties>
    <property name="message" value="4"/>
    <property name="name" value="Sign"/>
   </properties>
  </object>
  <object id="13" x="304" y="144" width="16" height="16">
   <properties>
    <property name="message" value="5"/>
    <property name="name" value="Sign"/>
   </properties>
  </object>
  <object id="14" x="336" y="144" width="16" height="16">
   <properties>
    <property name="message" value="6"/>
    <property name="name" value="Sign"/>
   </properties>
  </object>
  <object id="15" x="368" y="144" width="16" height="16">
   <properties>
    <property name="message" value="7"/>
    <property name="name" value="Sign"/>
   </properties>
  </object>
  <object id="16" x="368" y="176" width="16" height="16">
   <properties>
    <property name="message" value="8"/>
    <property name="name" value="Sign"/>
   </properties>
  </object>
  <object id="17" x="144" y="192" width="16" height="16">
   <properties>
    <property name="message" value="How many purple portals are there?"/>
    <property name="name" value="Sign"/>
   </properties>
  </object>
  <object id="19" x="96" y="176" width="16" height="16">
   <properties>
    <property name="message" value="3"/>
    <property name="name" value="Sign"/>
   </properties>
  </object>
  <object id="20" x="96" y="144" width="16" height="16">
   <properties>
    <property name="message" value="4"/>
    <property name="name" value="Sign"/>
   </properties>
  </object>
  <object id="21" x="128" y="144" width="16" height="16">
   <properties>
    <property name="message" value="5"/>
    <property name="name" value="Sign"/>
   </properties>
  </object>
  <object id="22" x="160" y="144" width="16" height="16">
   <properties>
    <property name="message" value="6"/>
    <property name="name" value="Sign"/>
   </properties>
  </object>
  <object id="23" x="192" y="144" width="16" height="16">
   <properties>
    <property name="message" value="7"/>
    <property name="name" value="Sign"/>
   </properties>
  </object>
  <object id="24" x="192" y="176" width="16" height="16">
   <properties>
    <property name="message" value="8"/>
    <property name="name" value="Sign"/>
   </properties>
  </object>
  <object id="25" x="144" y="320" width="16" height="16">
   <properties>
    <property name="message" value="How many purple portals are there?"/>
    <property name="name" value="Sign"/>
   </properties>
  </object>
  <object id="27" x="96" y="304" width="16" height="16">
   <properties>
    <property name="message" value="3"/>
    <property name="name" value="Sign"/>
   </properties>
  </object>
  <object id="28" x="96" y="272" width="16" height="16">
   <properties>
    <property name="message" value="4"/>
    <property name="name" value="Sign"/>
   </properties>
  </object>
  <object id="29" x="128" y="272" width="16" height="16">
   <properties>
    <property name="message" value="5"/>
    <property name="name" value="Sign"/>
   </properties>
  </object>
  <object id="30" x="160" y="272" width="16" height="16">
   <properties>
    <property name="message" value="6"/>
    <property name="name" value="Sign"/>
   </properties>
  </object>
  <object id="31" x="192" y="272" width="16" height="16">
   <properties>
    <property name="message" value="7"/>
    <property name="name" value="Sign"/>
   </properties>
  </object>
  <object id="33" x="320" y="320" width="16" height="16">
   <properties>
    <property name="message" value="How many purple portals are there?"/>
    <property name="name" value="Sign"/>
   </properties>
  </object>
  <object id="34" x="272" y="336" width="16" height="16">
   <properties>
    <property name="message" value="2"/>
    <property name="name" value="Sign"/>
   </properties>
  </object>
  <object id="35" x="272" y="304" width="16" height="16">
   <properties>
    <property name="message" value="3"/>
    <property name="name" value="Sign"/>
   </properties>
  </object>
  <object id="36" x="272" y="272" width="16" height="16">
   <properties>
    <property name="message" value="4"/>
    <property name="name" value="Sign"/>
   </properties>
  </object>
  <object id="37" x="304" y="272" width="16" height="16">
   <properties>
    <property name="message" value="5"/>
    <property name="name" value="Sign"/>
   </properties>
  </object>
  <object id="38" x="336" y="272" width="16" height="16">
   <properties>
    <property name="message" value="6"/>
    <property name="name" value="Sign"/>
   </properties>
  </object>
  <object id="39" x="368" y="272" width="16" height="16">
   <properties>
    <property name="message" value="7"/>
    <property name="name" value="Sign"/>
   </properties>
  </object>
  <object id="40" x="368" y="304" width="16" height="16">
   <properties>
    <property name="message" value="8"/>
    <property name="name" value="Sign"/>
   </properties>
  </object>
  <object id="41" x="320" y="448" width="16" height="16">
   <properties>
    <property name="message" value="How many purple portals are there?"/>
    <property name="name" value="Sign"/>
   </properties>
  </object>
  <object id="42" x="272" y="464" width="16" height="16">
   <properties>
    <property name="message" value="2"/>
    <property name="name" value="Sign"/>
   </properties>
  </object>
  <object id="43" x="272" y="432" width="16" height="16">
   <properties>
    <property name="message" value="3"/>
    <property name="name" value="Sign"/>
   </properties>
  </object>
  <object id="44" x="256" y="400" width="16" height="16">
   <properties>
    <property name="message" value="4"/>
    <property name="name" value="Sign"/>
   </properties>
  </object>
  <object id="45" x="288" y="400" width="16" height="16">
   <properties>
    <property name="message" value="5"/>
    <property name="name" value="Sign"/>
   </properties>
  </object>
  <object id="46" x="320" y="400" width="16" height="16">
   <properties>
    <property name="message" value="6"/>
    <property name="name" value="Sign"/>
   </properties>
  </object>
  <object id="47" x="352" y="400" width="16" height="16">
   <properties>
    <property name="message" value="7"/>
    <property name="name" value="Sign"/>
   </properties>
  </object>
  <object id="48" x="368" y="432" width="16" height="16">
   <properties>
    <property name="message" value="8"/>
    <property name="name" value="Sign"/>
   </properties>
  </object>
  <object id="49" x="368" y="464" width="16" height="16">
   <properties>
    <property name="message" value="4"/>
    <property name="name" value="Sign"/>
   </properties>
  </object>
  <object id="50" x="384" y="400" width="16" height="16">
   <properties>
    <property name="message" value="4"/>
    <property name="name" value="Sign"/>
   </properties>
  </object>
  <object id="51" x="368" y="336" width="16" height="16">
   <properties>
    <property name="message" value="4"/>
    <property name="name" value="Sign"/>
   </properties>
  </object>
  <object id="110" x="464" y="352" width="16" height="16">
   <properties>
    <property name="message" value="Yes."/>
    <property name="name" value="Sign"/>
   </properties>
  </object>
  <object id="111" x="496" y="352" width="16" height="16">
   <properties>
    <property name="message" value="No."/>
    <property name="name" value="Sign"/>
   </properties>
  </object>
  <object id="112" x="528" y="352" width="16" height="16">
   <properties>
    <property name="message" value="The cake is a lie."/>
    <property name="name" value="Sign"/>
   </properties>
  </object>
  <object id="113" x="496" y="384" width="16" height="16">
   <properties>
    <property name="message" value="Do you want cake?"/>
    <property name="name" value="Sign"/>
   </properties>
  </object>
  <object id="117" x="528" y="224" width="16" height="16">
   <properties>
    <property name="trainerId" value="coach"/>
   </properties>
  </object>
 </objectgroup>
 <objectgroup color="#55ff00" id="5" name="Warp">
  <object id="64" x="256" y="208" width="16" height="16"/>
  <object id="66" x="96" y="384" width="16" height="16">
   <properties>
    <property name="map" value="gym3"/>
    <property name="spawn" value="gym3-start-over"/>
   </properties>
  </object>
  <object id="67" x="128" y="384" width="16" height="16">
   <properties>
    <property name="map" value="gym3"/>
    <property name="spawn" value="gym3-start-over"/>
   </properties>
  </object>
  <object id="68" x="160" y="384" width="16" height="16">
   <properties>
    <property name="map" value="gym3"/>
    <property name="spawn" value="gym3-start-over"/>
   </properties>
  </object>
  <object id="69" x="192" y="384" width="16" height="16">
   <properties>
    <property name="map" value="gym3"/>
    <property name="spawn" value="gym3-start-over"/>
   </properties>
  </object>
  <object id="70" x="96" y="256" width="16" height="16">
   <properties>
    <property name="map" value="gym3"/>
    <property name="spawn" value="gym3-start-over"/>
   </properties>
  </object>
  <object id="71" x="128" y="256" width="16" height="16">
   <properties>
    <property name="map" value="gym3"/>
    <property name="spawn" value="gym3-start-over"/>
   </properties>
  </object>
  <object id="72" x="160" y="256" width="16" height="16">
   <properties>
    <property name="map" value="gym3"/>
    <property name="spawn" value="gym3-start-over"/>
   </properties>
  </object>
  <object id="73" x="192" y="256" width="16" height="16">
   <properties>
    <property name="map" value="gym3"/>
    <property name="spawn" value="gym3-start-over"/>
   </properties>
  </object>
  <object id="74" x="80" y="304" width="16" height="16">
   <properties>
    <property name="map" value="gym3"/>
    <property name="spawn" value="gym3-start-over"/>
   </properties>
  </object>
  <object id="75" x="96" y="128" width="16" height="16">
   <properties>
    <property name="map" value="gym3"/>
    <property name="spawn" value="gym3-start-over"/>
   </properties>
  </object>
  <object id="76" x="128" y="128" width="16" height="16">
   <properties>
    <property name="map" value="gym3"/>
    <property name="spawn" value="gym3-start-over"/>
   </properties>
  </object>
  <object id="77" x="160" y="128" width="16" height="16">
   <properties>
    <property name="map" value="gym3"/>
    <property name="spawn" value="gym3-start-over"/>
   </properties>
  </object>
  <object id="78" x="192" y="128" width="16" height="16">
   <properties>
    <property name="map" value="gym3"/>
    <property name="spawn" value="gym3-start-over"/>
   </properties>
  </object>
  <object id="79" x="80" y="176" width="16" height="16">
   <properties>
    <property name="map" value="gym3"/>
    <property name="spawn" value="gym3-start-over"/>
   </properties>
  </object>
  <object id="80" x="208" y="176" width="16" height="16">
   <properties>
    <property name="map" value="gym3"/>
    <property name="spawn" value="gym3-start-over"/>
   </properties>
  </object>
  <object id="81" x="272" y="128" width="16" height="16">
   <properties>
    <property name="map" value="gym3"/>
    <property name="spawn" value="gym3-start-over"/>
   </properties>
  </object>
  <object id="82" x="304" y="128" width="16" height="16">
   <properties>
    <property name="map" value="gym3"/>
    <property name="spawn" value="gym3-start-over"/>
   </properties>
  </object>
  <object id="83" x="336" y="128" width="16" height="16">
   <properties>
    <property name="map" value="gym3"/>
    <property name="spawn" value="gym3-start-over"/>
   </properties>
  </object>
  <object id="84" x="368" y="128" width="16" height="16">
   <properties>
    <property name="map" value="gym3"/>
    <property name="spawn" value="gym3-start-over"/>
   </properties>
  </object>
  <object id="85" x="256" y="176" width="16" height="16">
   <properties>
    <property name="map" value="gym3"/>
    <property name="spawn" value="gym3-start-over"/>
   </properties>
  </object>
  <object id="86" x="384" y="176" width="16" height="16">
   <properties>
    <property name="map" value="gym3"/>
    <property name="spawn" value="gym3-start-over"/>
   </properties>
  </object>
  <object id="87" x="272" y="256" width="16" height="16">
   <properties>
    <property name="map" value="gym3"/>
    <property name="spawn" value="gym3-start-over"/>
   </properties>
  </object>
  <object id="88" x="304" y="256" width="16" height="16">
   <properties>
    <property name="map" value="gym3"/>
    <property name="spawn" value="gym3-start-over"/>
   </properties>
  </object>
  <object id="89" x="336" y="256" width="16" height="16">
   <properties>
    <property name="map" value="gym3"/>
    <property name="spawn" value="gym3-start-over"/>
   </properties>
  </object>
  <object id="90" x="368" y="256" width="16" height="16">
   <properties>
    <property name="map" value="gym3"/>
    <property name="spawn" value="gym3-start-over"/>
   </properties>
  </object>
  <object id="91" x="256" y="304" width="16" height="16">
   <properties>
    <property name="map" value="gym3"/>
    <property name="spawn" value="gym3-start-over"/>
   </properties>
  </object>
  <object id="92" x="384" y="304" width="16" height="16">
   <properties>
    <property name="map" value="gym3"/>
    <property name="spawn" value="gym3-start-over"/>
   </properties>
  </object>
  <object id="93" x="288" y="384" width="16" height="16">
   <properties>
    <property name="map" value="gym3"/>
    <property name="spawn" value="gym3-start-over"/>
   </properties>
  </object>
  <object id="94" x="320" y="384" width="16" height="16">
   <properties>
    <property name="map" value="gym3"/>
    <property name="spawn" value="gym3-start-over"/>
   </properties>
  </object>
  <object id="95" x="352" y="384" width="16" height="16">
   <properties>
    <property name="map" value="gym3"/>
    <property name="spawn" value="gym3-start-over"/>
   </properties>
  </object>
  <object id="96" x="384" y="384" width="16" height="16">
   <properties>
    <property name="map" value="gym3"/>
    <property name="spawn" value="gym3-start-over"/>
   </properties>
  </object>
  <object id="97" x="256" y="432" width="16" height="16">
   <properties>
    <property name="map" value="gym3"/>
    <property name="spawn" value="gym3-start-over"/>
   </properties>
  </object>
  <object id="98" x="384" y="432" width="16" height="16">
   <properties>
    <property name="map" value="gym3"/>
    <property name="spawn" value="gym3-start-over"/>
   </properties>
  </object>
  <object id="99" x="256" y="336" width="16" height="16">
   <properties>
    <property name="map" value="gym3"/>
    <property name="spawn" value="gym3-start-over"/>
   </properties>
  </object>
  <object id="100" x="384" y="336" width="16" height="16">
   <properties>
    <property name="map" value="gym3"/>
    <property name="spawn" value="gym3-start-over"/>
   </properties>
  </object>
  <object id="101" x="256" y="384" width="16" height="16">
   <properties>
    <property name="map" value="gym3"/>
    <property name="spawn" value="gym3-start-over"/>
   </properties>
  </object>
  <object id="102" x="256" y="464" width="16" height="16">
   <properties>
    <property name="map" value="gym3"/>
    <property name="spawn" value="gym3-start-over"/>
   </properties>
  </object>
  <object id="103" x="384" y="464" width="16" height="16">
   <properties>
    <property name="map" value="gym3"/>
    <property name="spawn" value="gym3-start-over"/>
   </properties>
  </object>
  <object id="116" x="560" y="224" width="16" height="32">
   <properties>
    <property name="map" value="town"/>
    <property name="spawn" value="gym3-exit"/>
   </properties>
  </object>
  <object id="118" x="528" y="336" width="16" height="16">
   <properties>
    <property name="map" value="gym3"/>
    <property name="spawn" value="gym3-trial8"/>
   </properties>
  </object>
  <object id="119" x="496" y="336" width="16" height="16">
   <properties>
    <property name="map" value="gym3"/>
    <property name="spawn" value="gym3-start-over"/>
   </properties>
  </object>
  <object id="120" x="464" y="336" width="16" height="16">
   <properties>
    <property name="map" value="gym3"/>
    <property name="spawn" value="gym3-start-over"/>
   </properties>
  </object>
  <object id="122" x="144" y="560" width="16" height="16">
   <properties>
    <property name="map" value="town"/>
    <property name="spawn" value="gym3-exit"/>
   </properties>
  </object>
 </objectgroup>
 <objectgroup color="#ff00ff" id="6" name="Spawns">
  <object id="65" x="144" y="512" width="16" height="16">
   <properties>
    <property name="spawn" value="gym3-start-over"/>
   </properties>
  </object>
  <object id="104" x="144" y="336" width="16" height="16">
   <properties>
    <property name="spawn" value="gym-trial2"/>
   </properties>
  </object>
  <object id="105" x="144" y="208" width="16" height="16">
   <properties>
    <property name="spawn" value="gym3-trial3"/>
   </properties>
  </object>
  <object id="106" x="320" y="208" width="16" height="16">
   <properties>
    <property name="spawn" value="gym-trial4"/>
   </properties>
  </object>
  <object id="107" x="320" y="336" width="16" height="16">
   <properties>
    <property name="spawn" value="gym-trial5"/>
   </properties>
  </object>
  <object id="108" x="320" y="464" width="16" height="16">
   <properties>
    <property name="spawn" value="gym-trial6"/>
   </properties>
  </object>
  <object id="109" x="144" y="544" width="16" height="16">
   <properties>
    <property name="spawn" value="gym3-entrance"/>
   </properties>
  </object>
  <object id="114" x="496" y="400" width="16" height="16">
   <properties>
    <property name="spawn" value="gym-trial7"/>
   </properties>
  </object>
  <object id="115" x="464" y="256" width="16" height="16">
   <properties>
    <property name="spawn" value="gym-trial8"/>
   </properties>
  </object>
 </objectgroup>
 <objectgroup color="#aa00ff" id="7" name="Wild" visible="0">
  <object id="54" x="128" y="432" width="48" height="48"/>
  <object id="55" x="128" y="304" width="48" height="48"/>
  <object id="60" x="128" y="176" width="48" height="48"/>
  <object id="61" x="304" y="176" width="48" height="48"/>
  <object id="62" x="304" y="304" width="48" height="48"/>
  <object id="63" x="304" y="432" width="48" height="48"/>
 </objectgroup>
</map>
