<?xml version="1.0" encoding="UTF-8"?>
<map version="1.10" tiledversion="1.12.2" orientation="orthogonal" renderorder="right-down" width="56" height="39" tilewidth="16" tileheight="16" infinite="0" nextlayerid="12" nextobjectid="47">
 <tileset firstgid="1" source="pokemon.tsx"/>
 <tileset firstgid="1317" source="BuildingTileset.tsx"/>
 <tileset firstgid="5286" source="npcs-compact-16.tsx"/>
 <tileset firstgid="5306" source="indoortileset.tsx"/>
 <layer id="1" name="Floor" width="56" height="39">
  <properties>
   <property name="walkable" type="bool" value="true"/>
  </properties>
  <data encoding="csv">
35,35,35,35,35,35,35,35,35,35,35,35,35,35,35,35,35,35,35,35,35,35,35,35,35,35,35,35,35,35,35,35,35,35,35,35,35,35,35,35,35,35,35,35,35,35,35,35,35,35,35,35,35,35,35,35,
35,35,35,35,35,35,35,35,35,35,35,35,35,35,35,35,35,35,35,35,35,35,35,35,35,35,35,35,35,35,35,35,35,35,35,35,35,35,35,35,35,35,35,35,35,35,35,35,35,35,35,35,35,35,35,35,
35,35,35,35,35,35,35,35,35,35,35,35,35,35,35,35,35,35,35,35,35,35,35,35,35,35,35,35,35,35,35,35,35,35,35,35,35,35,35,35,35,35,35,35,7,7,7,7,7,7,35,35,35,35,35,35,
35,35,35,35,35,35,35,35,35,35,35,35,35,35,35,35,35,35,35,35,35,35,35,35,35,35,35,35,35,35,35,35,35,35,35,35,35,35,35,35,35,35,35,0,0,0,0,0,0,0,0,0,0,0,35,35,
35,35,35,35,35,35,35,35,35,35,35,35,35,35,35,35,35,35,35,35,35,35,35,35,35,35,35,35,35,35,35,35,35,35,35,35,35,35,35,35,35,35,35,0,0,8,8,8,8,8,8,8,8,0,35,35,
35,35,35,35,35,35,35,35,35,35,35,35,35,35,35,35,35,35,35,35,35,35,35,35,35,35,35,35,35,35,35,35,35,35,35,35,35,35,35,35,35,35,35,0,0,8,8,8,8,8,8,8,8,0,35,35,
35,35,35,35,35,35,35,35,35,35,35,35,35,35,35,35,35,35,35,35,35,35,35,35,35,35,35,35,35,35,35,35,35,35,35,35,35,35,35,35,35,35,35,0,0,8,8,8,64,8,8,8,8,0,35,35,
35,35,35,35,35,35,3021,35,35,35,35,35,35,35,35,35,35,35,35,35,35,35,7,7,7,7,7,7,7,7,3795,7,7,7,7,7,7,7,7,35,35,35,35,0,8,8,8,8,8,8,8,8,8,0,35,35,
35,35,35,35,35,35,7,35,35,35,35,35,35,35,35,35,35,35,35,35,35,35,35,3795,35,35,35,35,35,452,424,453,35,35,35,35,35,3795,35,35,35,35,35,0,8,8,8,8,8,8,8,8,8,0,35,35,
35,35,7,35,35,200,169,172,172,172,172,172,172,172,172,172,172,172,172,172,172,172,424,424,424,453,35,35,35,422,421,423,35,35,35,452,424,424,453,35,35,35,35,0,8,8,8,8,8,8,8,8,8,0,35,35,
35,35,35,35,35,198,173,173,173,173,173,173,173,173,173,173,173,227,226,173,173,173,425,425,479,480,424,424,424,481,421,480,424,424,424,481,478,425,451,35,35,35,35,0,8,64,8,8,8,8,8,64,8,0,35,35,
35,35,35,35,35,35,35,35,35,35,35,35,7,35,35,35,35,170,171,35,35,35,35,35,450,425,425,425,425,479,421,478,425,425,425,425,451,35,35,35,35,35,35,0,8,8,8,8,8,8,8,8,8,0,35,35,
35,35,35,35,35,35,35,35,35,35,35,35,7,35,35,35,35,170,171,35,35,35,35,35,35,35,35,35,35,422,421,423,35,35,35,35,35,35,35,35,7,7,7,0,8,8,8,8,8,8,8,8,8,0,35,35,
35,35,35,35,35,35,35,35,35,35,35,35,7,35,35,35,35,170,171,35,35,35,35,35,35,35,35,35,35,170,169,171,35,35,35,35,35,35,35,200,172,172,201,35,8,8,8,8,8,8,8,8,8,0,35,35,
35,35,35,35,35,35,35,35,35,35,35,35,7,35,35,35,35,170,171,35,35,35,35,35,35,35,35,35,35,170,169,171,35,35,35,35,35,35,200,229,226,173,199,35,8,8,8,8,8,8,8,8,8,0,35,35,
35,35,35,35,35,35,35,35,35,35,35,35,7,35,35,35,35,170,171,35,35,35,35,35,35,35,35,35,35,170,169,171,35,35,35,35,35,200,229,226,199,35,35,35,8,8,8,8,8,8,8,8,8,0,35,35,
35,35,35,35,200,169,172,172,172,172,172,172,229,201,35,35,35,170,171,35,35,35,35,1576,35,35,7,7,7,170,169,171,35,35,35,35,200,229,226,199,7,35,35,0,8,8,8,64,8,8,8,8,8,0,0,35,
35,35,35,35,198,173,173,173,173,227,169,169,169,228,172,172,172,229,171,35,200,172,229,169,228,172,172,172,172,229,169,228,172,172,172,172,229,226,199,35,7,35,35,0,8,8,8,8,8,8,8,8,8,0,0,35,
35,35,35,35,35,35,35,35,35,198,173,173,173,173,173,227,169,169,228,172,229,169,169,169,169,169,169,368,369,169,169,169,169,169,169,226,173,199,35,35,7,35,35,0,8,8,8,8,8,8,8,8,64,0,35,35,
35,35,35,35,35,35,35,7,7,7,7,7,7,7,7,198,173,173,173,227,169,169,169,169,169,169,169,338,339,169,169,169,226,173,173,199,35,35,35,35,7,35,35,0,35,35,35,35,0,0,0,0,0,0,35,35,
35,35,35,35,35,35,35,35,7,7,7,7,7,35,7,7,7,35,35,198,227,169,169,169,169,169,169,366,367,169,169,169,171,35,35,35,35,35,35,35,7,35,35,35,35,200,172,201,7,7,7,7,7,7,35,35,
35,35,35,35,35,35,35,7,7,7,35,35,7,7,7,7,7,7,35,35,198,173,173,173,173,227,169,169,169,169,169,169,228,172,172,172,172,172,172,172,172,172,172,172,172,229,169,171,35,35,35,35,35,35,35,35,
35,35,35,35,35,35,35,7,7,35,35,35,35,35,35,35,7,7,7,7,7,7,35,35,35,198,173,227,169,169,169,226,173,173,173,173,173,173,173,173,173,173,173,173,227,169,169,171,35,35,35,35,35,35,35,35,
35,35,35,35,0,0,0,0,0,0,0,0,0,0,0,0,0,0,35,35,35,35,35,35,35,35,7,170,169,169,169,171,7,35,35,35,35,35,35,35,35,35,35,35,170,169,169,228,201,35,35,35,35,35,35,35,
35,35,35,35,0,7,7,7,7,7,35,35,35,35,35,35,35,0,35,35,35,35,35,35,35,35,35,198,227,169,226,199,35,35,35,35,35,35,35,7,7,7,35,35,198,173,173,227,169,35,35,35,35,35,35,35,
35,35,35,35,0,7,7,7,7,7,35,35,35,35,35,35,35,0,7,35,35,35,35,35,35,35,35,35,170,169,171,35,35,35,35,35,35,35,35,35,35,35,35,35,35,35,35,170,169,35,35,35,35,35,35,35,
35,35,35,35,0,7,7,7,7,7,35,35,35,35,35,35,35,35,200,172,172,172,172,172,172,172,172,172,229,169,228,201,35,35,35,35,35,35,35,35,35,35,35,35,35,35,35,170,169,35,35,35,35,35,35,35,
35,35,35,35,0,7,7,7,7,7,35,35,35,35,35,35,35,35,170,169,169,169,169,169,169,169,169,169,169,169,169,171,0,0,0,0,0,35,35,35,7,7,7,7,35,35,35,170,169,35,35,35,35,35,35,35,
35,35,35,35,0,7,7,7,7,7,35,35,35,35,35,35,35,35,198,173,173,173,173,173,173,173,173,227,169,169,169,171,0,0,0,0,0,35,35,35,7,35,35,35,7,35,35,198,227,226,199,35,35,35,35,35,
35,35,35,35,0,7,7,7,7,7,35,35,35,35,35,35,35,0,7,35,35,35,35,35,35,35,35,170,169,169,169,171,0,0,0,0,0,35,35,35,7,35,35,35,35,35,35,7,170,171,35,35,35,35,35,35,
35,35,35,35,0,7,7,7,7,7,35,35,35,35,35,35,35,0,35,35,35,7,7,7,35,35,35,170,169,169,169,171,767,767,767,767,767,35,35,35,35,35,35,7,35,35,35,7,170,171,35,35,35,35,35,35,
35,35,35,35,0,0,0,0,0,0,35,35,35,35,0,0,0,0,35,35,35,441,441,442,35,35,35,170,169,169,169,171,795,795,795,795,795,35,35,7,35,35,35,7,35,35,35,7,170,171,35,35,35,35,35,35,
35,35,35,35,35,35,7,7,35,35,35,35,35,35,35,35,35,35,35,35,35,35,35,7,35,35,35,170,169,169,169,171,0,0,0,0,0,35,35,7,7,7,7,7,35,35,35,35,2,3,35,35,35,35,35,35,
35,35,35,35,35,35,7,7,35,35,35,35,35,35,35,35,35,35,35,35,35,35,35,7,35,35,7,170,169,169,169,171,0,0,0,0,0,35,35,35,35,35,35,35,35,35,35,35,2,3,35,35,35,35,35,35,
35,35,35,35,35,35,35,35,35,35,35,35,35,35,35,35,35,35,35,35,35,497,498,498,35,35,7,198,173,173,173,199,0,0,0,0,788,4,4,4,4,4,4,4,4,4,4,4,61,60,4,4,4,33,35,35,
7,7,7,7,7,7,7,7,7,7,7,7,7,7,7,7,7,7,7,7,7,7,7,7,7,7,7,7,599,600,601,7,0,0,0,0,758,757,757,757,757,757,757,757,757,757,757,757,1,1,740,741,757,759,0,0,
7,7,7,7,7,7,7,7,7,7,7,7,7,7,7,7,7,7,7,7,7,7,7,7,7,7,7,7,627,628,629,7,0,0,0,0,786,761,761,761,761,761,761,761,761,761,761,761,761,761,768,769,761,787,0,0,
7,7,7,7,7,7,7,7,7,7,7,7,7,7,7,7,7,7,7,7,7,7,7,7,7,7,7,7,655,656,657,7,0,0,0,0,0,0,0,0,0,0,0,0,0,0,0,0,0,0,796,797,0,0,0,0,
7,7,7,7,7,7,7,7,7,7,7,7,7,7,7,7,7,7,7,7,7,7,7,7,7,7,7,7,683,684,685,7,0,0,0,0,0,0,0,0,0,0,0,0,0,0,0,0,0,0,0,0,0,0,0,0
</data>
 </layer>
 <objectgroup color="#ffff00" id="6" name="Warp">
  <object id="7" x="368" y="256" width="16" height="16">
   <properties>
    <property name="door" type="int" value="5"/>
   </properties>
  </object>
  <object id="8" x="368" y="128" width="16" height="16">
   <properties>
    <property name="map" value="gym1"/>
    <property name="spawn" value="gym1-entrance"/>
   </properties>
  </object>
  <object id="32" x="480" y="112" width="16" height="16">
   <properties>
    <property name="map" value="gym2"/>
    <property name="spawn" value="gym2-entrance"/>
   </properties>
  </object>
  <object id="35" x="592" y="128" width="16" height="16">
   <properties>
    <property name="map" value="gym3"/>
    <property name="spawn" value="gym3-entrance"/>
   </properties>
  </object>
  <object id="39" x="96" y="112" width="16" height="16">
   <properties>
    <property name="map" value="lab"/>
    <property name="spawn" value="lab-entrance"/>
   </properties>
  </object>
 </objectgroup>
 <objectgroup color="#ff00ff" id="10" name="Spawns">
  <object id="32" x="368" y="144" width="16" height="16">
   <properties>
    <property name="facing" value="down"/>
    <property name="spawn" value="gym1-exit"/>
   </properties>
  </object>
  <object id="33" x="480" y="128" width="16" height="16">
   <properties>
    <property name="facing" value="down"/>
    <property name="spawn" value="gym2-exit"/>
   </properties>
  </object>
  <object id="34" x="592" y="144" width="16" height="16">
   <properties>
    <property name="facing" value="down"/>
    <property name="spawn" value="gym3-exit"/>
   </properties>
  </object>
  <object id="36" x="96" y="128" width="16" height="16">
   <properties>
    <property name="facing" value="down"/>
    <property name="spawn" value="lab-exit"/>
   </properties>
  </object>
  <object id="38" x="464" y="528" width="16" height="16">
   <properties>
    <property name="facing" value="down"/>
    <property name="spawn" value="game-start"/>
   </properties>
  </object>
 </objectgroup>
 <objectgroup color="#ffff00" id="11" name="Portals"/>
 <objectgroup color="#aa00ff" id="7" name="Wild" locked="1">
  <object id="11" x="704" y="64" width="144" height="240">
   <properties>
    <property name="wild" type="bool" value="true"/>
   </properties>
  </object>
 </objectgroup>
 <layer id="3" name="Obstacle" width="56" height="39">
  <properties>
   <property name="walkable" type="bool" value="false"/>
  </properties>
  <data encoding="csv">
493,494,493,494,493,494,493,494,493,494,493,494,493,494,493,494,493,494,493,494,493,494,493,494,493,494,493,494,493,494,493,494,493,494,493,494,493,494,493,494,493,494,493,494,493,494,493,494,493,494,493,494,493,494,493,494,
521,522,519,520,519,520,519,520,519,520,519,520,519,520,519,520,519,520,519,520,519,520,519,520,519,520,519,520,519,520,519,520,519,520,519,520,519,520,519,520,519,520,519,520,519,520,519,520,519,520,519,520,519,520,521,522,
549,550,547,548,547,548,547,548,547,548,547,548,547,548,547,548,547,548,547,548,547,548,547,548,547,548,547,548,547,548,547,548,547,548,547,548,547,548,547,548,547,548,547,548,547,548,547,548,547,548,547,548,547,548,549,550,
521,522,0,2766,2767,2768,2769,2770,2771,2772,0,0,0,0,0,0,0,5296,0,0,0,0,0,0,0,0,3539,3540,3541,3542,3543,3544,3545,3539,0,0,0,0,0,0,0,0,0,427,428,428,428,428,428,428,428,428,428,429,521,522,
549,550,0,2829,2830,2831,2832,2833,2834,2835,0,0,15,16,17,0,0,18,0,3539,3081,3082,3083,3084,3085,3086,3602,3603,3604,3605,3606,3607,3608,3602,1784,1785,1786,1787,1788,1788,1789,0,0,455,382,0,0,0,0,0,0,0,0,457,549,550,
519,520,0,2892,2893,2894,2895,2896,2897,2898,0,0,43,44,45,0,0,0,0,3602,3144,3145,3146,3147,3148,3149,3665,3666,3667,3668,3669,3670,3671,3665,1847,1848,1849,1850,1851,1851,1852,0,0,455,410,0,0,0,0,0,0,0,0,457,519,520,
493,494,0,2955,2956,2957,2958,2959,2960,2961,0,0,71,72,73,0,0,0,0,3665,3207,3208,3209,3210,3211,3212,3728,3729,3730,3731,3732,3733,3734,3728,1910,1911,1912,1913,1914,1914,1915,0,0,455,438,0,0,0,0,0,0,0,0,457,493,494,
521,522,0,3018,3019,3020,0,3022,3023,3024,0,0,99,100,101,0,0,0,0,3728,3729,3730,3731,3732,3733,3734,3791,3792,3793,3794,0,3796,3797,3791,3729,3730,3731,3732,3733,3734,0,0,0,455,0,0,0,0,0,0,0,0,0,457,521,522,
549,550,0,0,0,0,0,0,0,0,0,0,0,0,0,0,0,0,0,3791,3792,3793,3794,0,3796,3797,0,0,0,0,0,0,0,0,3792,3793,3794,0,3796,3797,0,0,0,455,0,0,0,0,0,0,0,0,0,457,549,550,
521,522,0,0,0,0,0,0,0,0,0,0,0,0,0,0,0,0,0,0,0,0,0,0,0,0,0,0,0,0,0,0,0,0,0,0,0,0,0,0,0,0,0,455,0,0,0,0,0,0,0,0,0,457,521,522,
549,550,0,0,0,0,0,0,0,0,0,0,0,0,0,0,0,0,0,0,0,0,0,0,0,0,0,0,0,0,0,0,0,0,0,0,0,0,0,0,0,0,0,455,0,0,0,0,0,0,0,0,0,457,549,550,
519,520,0,0,1638,1639,1640,1641,1642,0,0,1632,1633,1634,1635,1636,0,0,0,0,18,0,0,0,0,0,0,0,0,0,107,0,0,0,0,0,0,0,0,0,0,0,0,455,0,0,0,0,0,0,0,0,0,457,519,520,
493,494,0,0,1701,1702,1703,1704,1705,0,0,1695,1696,1697,1698,1699,0,0,0,0,0,1322,1323,1324,1325,1326,0,0,0,0,0,0,0,0,0,0,0,0,0,0,0,0,108,483,0,0,0,0,0,0,0,0,0,457,493,494,
521,522,0,0,1764,1765,1766,1767,1768,0,0,1758,1759,1760,1761,1762,0,0,0,0,0,1385,1386,1387,1388,1389,0,0,0,0,0,0,0,0,0,18,0,0,0,0,0,0,0,0,0,0,0,0,0,0,382,0,0,457,521,522,
549,550,0,0,1827,1828,1829,1830,1831,0,0,1821,1822,1823,1824,1825,0,0,0,0,0,1448,1449,1450,1451,1452,0,0,0,0,0,0,0,0,0,0,0,0,0,0,0,0,0,0,0,0,0,0,0,0,410,0,0,457,549,550,
521,522,0,0,1890,1891,1892,1893,1894,0,0,0,0,0,5295,0,0,0,0,0,0,1511,1512,1513,1514,1515,0,0,0,0,0,0,0,0,0,0,0,0,0,0,0,0,0,427,0,0,0,0,0,0,438,0,0,457,521,522,
549,550,0,5286,0,0,0,0,0,0,0,0,0,0,0,0,0,0,0,0,5288,1574,1575,0,1577,1578,0,0,0,0,0,0,0,0,0,0,0,0,0,0,0,0,0,455,0,0,0,0,0,0,0,0,0,457,549,550,
519,520,0,0,0,0,0,0,0,0,0,0,0,0,0,0,0,0,0,0,0,0,0,0,0,0,0,0,0,0,0,0,0,0,0,0,0,0,0,0,0,0,0,455,0,0,0,0,0,0,0,0,0,457,519,520,
493,494,0,0,0,0,0,0,0,0,0,0,0,0,0,0,0,0,0,0,0,0,0,0,0,0,0,23,24,0,0,0,0,0,0,0,0,0,0,0,0,5289,0,455,0,0,0,0,0,0,0,0,0,457,493,494,
521,522,0,0,0,0,0,0,0,0,0,0,0,0,0,0,0,0,0,0,0,0,0,0,0,0,0,51,52,0,0,0,0,0,0,0,0,0,0,0,0,0,0,483,0,0,0,0,484,484,484,484,484,485,521,522,
549,550,0,0,0,0,0,0,0,0,0,0,0,0,0,0,0,0,0,0,0,0,0,0,0,0,0,79,80,0,0,0,0,0,0,0,0,0,0,0,0,0,0,0,0,0,0,0,108,0,0,0,0,0,549,550,
521,522,0,0,0,0,0,0,0,0,0,0,0,0,0,0,0,0,0,0,0,0,0,0,0,0,0,0,0,0,0,0,0,0,0,0,0,0,0,0,0,0,0,0,0,0,0,0,0,0,0,0,0,0,521,522,
549,550,0,0,0,0,0,0,0,0,0,0,0,0,0,0,132,132,0,0,0,0,0,0,0,0,0,0,0,0,0,0,0,0,0,0,0,0,0,0,0,0,0,0,0,0,0,0,0,0,0,0,0,0,549,550,
519,520,0,0,315,316,316,316,316,316,316,316,316,316,316,316,316,317,0,0,0,0,0,0,0,0,192,0,0,0,0,0,192,0,0,0,0,0,623,624,625,0,0,0,0,0,0,0,0,0,0,0,0,0,519,520,
549,550,0,0,343,48,49,49,48,49,50,48,49,50,48,49,50,345,0,0,0,0,0,0,18,0,220,0,0,0,0,0,220,0,0,0,0,0,0,0,0,0,0,0,0,0,0,0,0,3963,3964,3965,3966,3967,493,494,
519,520,0,0,343,76,5290,78,76,5291,78,76,5287,78,76,5293,78,345,107,0,0,0,0,0,0,0,0,0,0,0,0,107,0,0,0,0,0,0,623,624,625,0,0,0,0,0,0,0,0,4026,4027,4028,4029,4030,521,522,
493,494,0,0,343,106,0,106,132,0,132,133,0,133,134,0,134,0,0,0,0,0,0,0,0,0,0,0,0,0,0,0,707,708,708,708,709,0,0,0,0,0,0,0,0,0,0,0,0,4089,4090,4091,4092,4093,549,550,
519,520,0,0,343,0,0,0,0,0,0,0,0,0,0,0,0,0,0,0,0,0,0,0,0,0,0,0,0,0,0,0,123,124,124,124,125,0,0,0,18,18,18,18,18,0,0,0,0,4152,4153,4154,4155,4156,521,522,
547,548,0,0,343,0,0,0,0,0,0,0,0,0,0,0,0,0,0,0,0,0,0,0,0,0,0,0,0,0,0,0,151,152,152,152,153,0,0,0,18,0,0,0,0,0,0,0,0,0,0,4217,4218,4219,549,550,
0,9,0,0,343,77,0,0,344,0,0,0,0,344,0,0,0,345,0,0,0,0,0,0,0,0,0,0,0,0,0,0,151,152,152,152,153,0,0,0,18,0,0,0,0,0,0,0,0,0,0,0,0,0,519,520,
491,492,0,0,343,105,104,0,0,0,0,0,0,0,0,0,344,345,0,0,0,18,18,18,0,0,0,0,0,0,0,0,0,0,0,0,0,0,0,0,0,0,0,0,18,0,0,0,0,0,0,0,0,0,493,494,
519,520,0,0,371,372,372,372,372,372,0,0,0,0,372,372,372,373,0,0,440,5292,0,0,443,0,0,0,0,0,0,0,0,0,0,0,0,0,0,0,0,0,0,0,18,0,0,0,0,0,0,0,0,0,521,522,
547,548,0,0,0,0,0,0,0,0,0,0,0,0,0,0,0,0,0,0,468,0,0,0,471,0,0,0,0,0,0,0,151,152,152,152,153,0,0,0,18,18,18,18,18,0,0,0,0,0,0,0,0,0,549,550,
519,520,0,0,0,0,0,0,0,0,0,0,0,0,0,0,456,0,0,0,526,0,0,0,527,0,0,0,0,0,0,0,151,152,152,152,153,0,0,0,0,0,0,0,0,0,0,0,0,0,0,0,0,0,519,520,
549,550,456,0,0,0,0,0,0,0,0,0,0,0,0,0,0,0,0,0,496,0,0,0,499,0,0,0,0,0,0,0,151,152,152,152,0,0,0,0,0,0,0,0,0,0,0,0,0,0,0,0,0,0,547,548,
519,520,0,0,0,0,0,0,0,0,0,0,0,0,0,0,0,0,0,0,0,0,0,0,0,0,0,598,0,0,0,602,151,403,404,152,0,0,0,0,0,0,0,0,0,0,0,0,0,0,0,0,0,0,152,152,
549,550,0,0,0,0,0,0,0,0,0,0,456,0,0,0,0,0,0,0,0,0,0,0,0,0,0,626,0,0,0,630,151,431,432,152,0,0,0,0,0,0,0,0,0,0,0,0,0,0,0,0,0,0,152,152,
519,520,0,0,0,0,0,0,0,0,0,0,0,0,0,0,0,0,0,0,0,0,456,0,0,0,0,654,0,0,0,658,151,152,152,152,152,152,152,152,152,152,152,152,152,152,152,152,152,152,0,5294,152,152,152,152,
547,548,0,0,0,0,0,0,0,0,0,0,0,0,0,0,0,0,0,0,0,0,0,0,0,0,0,682,0,0,0,686,151,152,152,152,152,152,152,152,152,152,152,152,152,152,152,152,152,152,824,825,152,152,152,152
</data>
 </layer>
 <objectgroup color="#ff0000" id="8" name="Actables">
  <object id="12" x="48" y="256" width="16" height="16">
   <properties>
    <property name="message" value="I got this house on a crazy good deal."/>
    <property name="name" value="Eric"/>
   </properties>
  </object>
  <object id="13" x="224" y="240" width="16" height="16">
   <properties>
    <property name="message" value="Mm mm that bread at the market is so tasy."/>
    <property name="name" value="Hailey"/>
   </properties>
  </object>
  <object id="14" x="336" y="496" width="16" height="16">
   <properties>
    <property name="message" value="Some people say the mayor is a robot. Maybe that's why she never seems to age."/>
    <property name="name" value="Ben"/>
   </properties>
  </object>
  <object id="15" x="656" y="288" width="16" height="16">
   <properties>
    <property name="message" value="Be careful! The garden is full of Portalmon."/>
    <property name="name" value="Billy"/>
   </properties>
  </object>
  <object id="16" x="320" y="256" width="16" height="16">
   <properties>
    <property name="message" value="Your Portalmon will be well taken care of in our enrichment center"/>
    <property name="name" value="Nurse Karen"/>
   </properties>
  </object>
  <object id="17" x="96" y="400" width="16" height="16">
   <properties>
    <property name="message" value="Fresh cache, picked this morning. Only slightly stale."/>
    <property name="name" value="bob1"/>
   </properties>
  </object>
  <object id="18" x="144" y="400" width="16" height="16">
   <properties>
    <property name="message" value="Two for one on legacy dependencies. No refunds, no support."/>
    <property name="name" value="bob2"/>
   </properties>
  </object>
  <object id="20" x="240" y="400" width="16" height="16">
   <properties>
    <property name="message" value="Everything at this stall is organic, artisanal, and completely untested."/>
    <property name="name" value="bob4"/>
   </properties>
  </object>
  <object id="21" x="816" y="592" width="16" height="16">
   <properties>
    <property name="message" value="Been phishing for days now and no bytes."/>
    <property name="name" value="Joe"/>
   </properties>
  </object>
  <object id="22" x="192" y="400" width="16" height="16">
   <properties>
    <property name="message" value="These tomatoes are heirloom. So is my codebase. Neither is documented."/>
    <property name="name" value="bob3"/>
   </properties>
  </object>
  <object id="28" x="768" y="320" width="16" height="16">
   <properties>
    <property name="message" value="Wild Portalmon ahead. Enter at your own risk!"/>
    <property name="name" value="Sign"/>
   </properties>
  </object>
  <object id="30" x="288" y="400" width="16" height="16">
   <properties>
    <property name="message" value="Farmer's Market"/>
    <property name="name" value="Sign"/>
   </properties>
  </object>
  <object id="40" x="272" y="48" width="16" height="16">
   <properties>
    <property name="trainerId" value="rey"/>
   </properties>
  </object>
  <object id="41" x="496" y="400" width="16" height="16">
   <properties>
    <property name="message" value="Welcome to Portal town! East: Beach. Northeast: Wild Portalmon safari. North: Gym battles. Center: Enrichment Center. Northwest: Lab. West: Farmer's Market."/>
    <property name="name" value="Sign"/>
   </properties>
  </object>
  <object id="42" x="480" y="176" width="16" height="16">
   <properties>
    <property name="message" value="Dangerous and tricky gym battles ahead! Make sure you've trained in the safari (east) before entering."/>
    <property name="name" value="Sign"/>
   </properties>
  </object>
  <object id="43" x="800" y="432" width="16" height="16">
   <properties>
    <property name="message" value="Locked!"/>
    <property name="name" value="Door"/>
   </properties>
  </object>
  <object id="44" x="80" y="224" width="16" height="16">
   <properties>
    <property name="message" value="Locked!"/>
    <property name="name" value="Door"/>
   </properties>
  </object>
  <object id="45" x="192" y="224" width="16" height="16">
   <properties>
    <property name="message" value="Locked!"/>
    <property name="name" value="Door"/>
   </properties>
  </object>
  <object id="46" x="672" y="192" width="16" height="16">
   <properties>
    <property name="message" value="Wild Portalmon ahead. Enter at your own risk!"/>
    <property name="name" value="Sign"/>
   </properties>
  </object>
 </objectgroup>
</map>
